luts/custom_grade.cube
TITLE "Generated by Resolve"
LUT_3D_SIZE 33
0 0 0
0 0 0
0 0 0
0.0593576 0 0
0.112932 0 0
0.157763 0 0
0.203525 0 0
0.256489 0 0
0.315587 0 0
0.379919 0 0
0.448707 0 0
0.522667 0 0
0.600931 0 0
0.68162 0 0
0.762036 0 0
0.840345 0 0
0.91603 0 0
0.990234 0 0
1 0.00424201 0.00424201
1 0.00935378 0.00935378
1 0.0145266 0.0145266
1 0.0155184 0.0155184
1 0.0155184 0.0155184
1 0.0155184 0.0155184
1 0.0155032 0.0155032
1 0.0155032 0.0155032
1 0.0155184 0.0155184
1 0.0155184 0.0155184
1 0.0155184 0.0155184
1 0.0155032 0.0155032
1 0.0155032 0.0155032
1 0.0155032 0.0155032
1 0.0154879 0.0154879
0 0 0
0 0 0
0 0 0
0.0404822 0 0
0.0958419 0 0
0.14406 0 0
0.191989 0 0
0.247135 0 0
0.307378 0 0
0.373068 0 0
0.443305 0 0
0.517876 0 0
0.596918 0 0
0.678401 0 0
0.759182 0 0
0.83801 0 0
0.914214 0 0
0.988388 0 0
1 0.00410468 0.00410468
1 0.00921645 0.00921645
1 0.0144198 0.0144198
1 0.0155337 0.0155337
1 0.0155337 0.0155337
1 0.0155337 0.0155337
1 0.0155337 0.0155337
1 0.0155337 0.0155337
1 0.0155337 0.0155337
1 0.0155337 0.0155337
1 0.0155337 0.0155337
1 0.0155337 0.0155337
1 0.0155184 0.0155184
1 0.0155032 0.0155032
1 0.0155032 0.0155032
0 0 0
0 0 0
0 0 0
0.0209201 0 0
0.0782788 0 0
0.129458 0 0
0.180026 0 0
0.237171 0 0
0.298909 0 0
0.366232 0 0
0.437507 0 0
0.512779 0 0
0.592615 0 0
0.67483 0 0
0.756252 0 0
0.835721 0 0
0.912261 0 0
0.986526 0 0
1 0.00396735 0.00396735
1 0.00907912 0.00907912
1 0.0142824 0.0142824
1 0.0155337 0.0155337
1 0.0155337 0.0155337
1 0.0155337 0.0155337
1 0.0155337 0.0155337
1 0.0155337 0.0155337
1 0.0155337 0.0155337
1 0.0155337 0.0155337
1 0.0155337 0.0155337
1 0.0155337 0.0155337
1 0.0155337 0.0155337
1 0.0155184 0.0155184
1 0.0155032 0.0155032
0 0.0348669 0
0 0.0284733 0
0 0.0219425 0
0 0.0146792 0
0.0584878 0.0059968 0
0.112078 0.000411994 0
0.166842 0 0
0.226673 0 0
0.29012 0 0
0.358877 0 0
0.431464 0 0
0.507774 0 0
0.588434 0 0
0.671412 0 0
0.753521 0 0
0.833265 0 0
0.910216 0 0
0.984665 0 0
1 0.00381476 0.00381476
1 0.00895705 0.00895705
1 0.0141451 0.0141451
1 0.0155337 0.0155337
1 0.0155337 0.0155337
1 0.0155337 0.0155337
1 0.0155337 0.0155337
1 0.0155337 0.0155337
1 0.0155337 0.0155337
1 0.0155337 0.0155337
1 0.0155337 0.0155337
1 0.0155337 0.0155337
1 0.0155337 0.0155337
1 0.0155337 0.0155337
1 0.0155032 0.0155032
0 0.0810407 0
0 0.0755474 0
0 0.0700999 0
0 0.0643015 0
0.0336919 0.0556649 0
0.0885786 0.0488594 0
0.146639 0.0417029 0
0.208713 0.0318456 0
0.275105 0.018555 0
0.349355 0.00062562 0
0.425284 0 0
0.502708 0 0
0.584024 0 0
0.66775 0 0
0.750713 0 0
0.830777 0 0
0.908095 0 0
0.98294 0 0
1 0.00367742 0.00367742
1 0.00885023 0.00885023
1 0.014023 0.014023
1 0.0155337 0.0155337
1 0.0155337 0.0155337
1 0.0155337 0.0155337
1 0.0155337 0.0155337
1 0.0155337 0.0155337
1 0.0155337 0.0155337
1 0.0155337 0.0155337
1 0.0155337 0.0155337
1 0.0155337 0.0155337
1 0.0155337 0.0155337
1 0.0155337 0.0155337
1 0.0155184 0.0155184
0 0.122972 0
0 0.118059 0
0 0.113176 0
0 0.107836 0
0.0117037 0.100252 0
0.0678111 0.0926986 0
0.12929 0.0848707 0
0.194186 0.074815 0
0.261921 0.0619364 0
0.334066 0.0449683 0
0.411261 0.0237125 0
0.49572 0 0
0.579812 0 0
0.664149 0 0
0.747753 0 0
0.828504 0 0
0.906172 0 0
0.981048 0 0
1 0.00354009 0.00354009
1 0.00881972 0.00881972
1 0.0138705 0.0138705
1 0.0155337 0.0155337
1 0.0155337 0.0155337
1 0.0155337 0.0155337
1 0.0155337 0.0155337
1 0.0155337 0.0155337
1 0.0155337 0.0155337
1 0.0155337 0.0155337
1 0.0155337 0.0155337
1 0.0155337 0.0155337
1 0.0155337 0.0155337
1 0.0155337 0.0155337
1 0.0155337 0.0155337
0 0.16527 0
0 0.161334 0
0 0.157382 0
0 0.153185 0
0 0.148699 0
0.0438544 0.141375 0
0.1075 0.134264 0
0.177081 0.12517 0
0.247532 0.113405 0
0.321477 0.0970932 0
0.399344 0.0758984 0
0.480262 0.0502022 0
0.567117 0.0181277 0
0.659739 0 0
0.744228 0 0
0.825437 0 0
0.903563 0 0
0.978714 0 0
1 0.00335698 0.00335698
1 0.00875868 0.00875868
1 0.0137789 0.0137789
1 0.0155337 0.0155337
1 0.0155337 0.0155337
1 0.0155184 0.0155184
1 0.0155337 0.0155337
1 0.0155184 0.0155184
1 0.0155184 0.0155184
1 0.0155184 0.0155184
1 0.0155184 0.0155184
1 0.0155337 0.0155337
1 0.0155337 0.0155337
1 0.0155337 0.0155337
1 0.0155184 0.0155184
0 0.213642 0
0 0.210269 0
0 0.207004 0
0 0.203647 0
0 0.200168 0
0.00952163 0.194858 0
0.0761425 0.188281 0
0.153109 0.18085 0
0.22826 0.171206 0
0.305943 0.158282 0
0.386648 0.141558 0
0.469032 0.119921 0
0.555077 0.090135 0
0.643137 0.0522164 0
0.734524 0.00602731 0
0.821408 0 0
0.899916 0 0
0.975723 0 0
1 0.0031281 0.0031281
1 0.00852979 0.00852979
1 0.0137331 0.0137331
1 0.0155337 0.0155337
1 0.0155337 0.0155337
1 0.0155337 0.0155337
1 0.0155337 0.0155337
1 0.0155337 0.0155337
1 0.0155337 0.0155337
1 0.0155337 0.0155337
1 0.0155337 0.0155337
1 0.0155337 0.0155337
1 0.0155489 0.0155489
1 0.0155337 0.0155337
1 0.0155337 0.0155337
0 0.266758 0
0 0.264073 0
0 0.26125 0
0 0.258274 0
0 0.255329 0
0 0.252552 0
0.0352483 0.245884 0
0.120073 0.239704 0
0.202121 0.231952 0
0.284916 0.2215 0
0.370123 0.207828 0
0.456397 0.190738 0
0.544961 0.168978 0
0.634638 0.140185 0
0.722133 0.101396 0
0.806775 0.049958 0
0.895354 0 0
0.97171 0 0
1 0.00282292 0.00282292
1 0.00822461 0.00822461
1 0.0134585 0.0134585
1 0.0155337 0.0155337
1 0.0155337 0.0155337
1 0.0155337 0.0155337
1 0.0155337 0.0155337
1 0.0155337 0.0155337
1 0.0155337 0.0155337
1 0.0155337 0.0155337
1 0.0155337 0.0155337
1 0.0155337 0.0155337
1 0.0155337 0.0155337
1 0.0155337 0.0155337
1 0.0155337 0.0155337
0 0.326116 0
0 0.323629 0
0 0.321233 0
0 0.318761 0
0 0.316258 0
0 0.313695 0
0 0.31043 0
0.0713054 0.303334 0
0.166461 0.297505 0
0.256184 0.289189 0
0.34728 0.277836 0
0.438834 0.263645 0
0.531182 0.246235 0
0.624842 0.22443 0
0.715969 0.197086 0
0.801953 0.162203 0
0.881743 0.114549 0
0.958648 0.0496834 0
1 0.00242618 0.00242618
1 0.00782788 0.00782788
1 0.0130617 0.0130617
1 0.0155337 0.0155337
1 0.0155337 0.0155337
1 0.0155337 0.0155337
1 0.0155337 0.0155337
1 0.0155337 0.0155337
1 0.0155337 0.0155337
1 0.0155337 0.0155337
1 0.0155337 0.0155337
1 0.0155337 0.0155337
1 0.0155337 0.0155337
1 0.0155337 0.0155337
1 0.0155337 0.0155337
0 0.391791 0
0 0.389944 0
0 0.387762 0
0 0.385534 0
0 0.383307 0
0 0.381155 0
0 0.378668 0
0.0033875 0.373373 0
0.116838 0.367895 0
0.218112 0.36173 0
0.31664 0.352529 0
0.414359 0.340566 0
0.511452 0.326314 0
0.609049 0.308629 0
0.704128 0.287343 0
0.794415 0.261982 0
0.878096 0.230884 0
0.956374 0.191424 0
1 0.138094 0
1 0.0665141 0
1 0.0125887 0.0125887
1 0.0155337 0.0155337
1 0.0155337 0.0155337
1 0.0155337 0.0155337
1 0.0155337 0.0155337
1 0.0155337 0.0155337
1 0.0155337 0.0155337
1 0.0155337 0.0155337
1 0.0155337 0.0155337
1 0.0155337 0.0155337
1 0.0155337 0.0155337
1 0.0155337 0.0155337
1 0.0155337 0.0155337
0 0.463767 0
0 0.461936 0
0 0.46006 0
0 0.458152 0
0 0.456504 0
0 0.454673 0
0 0.452308 0
0 0.449042 0
0.0411536 0.442832 0
0.166934 0.438437 0
0.276432 0.431281 0
0.382498 0.421012 0
0.485267 0.408698 0
0.587152 0.394049 0
0.686229 0.376822 0
0.779706 0.357046 0
0.866758 0.334295 0
0.948211 0.307088 0
1 0.274083 0
1 0.23447 0.00344854
1 0.187304 0.00819409
1 0.126864 0.00927749
1 0.0580758 0.0090486
1 0.0155337 0.0155337
1 0.0155337 0.0155337
1 0.0155337 0.0155337
1 0.0155337 0.0155337
1 0.0155337 0.0155337
1 0.0155337 0.0155337
1 0.0155337 0.0155337
1 0.0155337 0.0155337
1 0.0155337 0.0155337
1 0.0155337 0.0155337
0 0.541054 0
0 0.539467 0
0 0.537911 0
0 0.536355 0
0 0.53489 0
0 0.533272 0
0 0.531258 0
0 0.528542 0
0 0.525048 0
0.0892958 0.518334 0
0.222599 0.513115 0
0.340475 0.50425 0
0.451835 0.493202 0
0.559487 0.480278 0
0.663401 0.465629 0
0.760525 0.449607 0
0.850065 0.432212 0
0.932815 0.412222 0
1 0.388952 0
1 0.361852 0
1 0.332296 0.0056611
1 0.300191 0.0112306
1 0.263371 0.0122072
1 0.22678 0.0122988
1 0.190661 0.0116274
1 0.155673 0.0103609
1 0.121736 0.00906386
1 0.0928054 0.00831617
1 0.0695354 0.00854505
1 0.0510719 0.00973526
1 0.0358282 0.0125277
1 0.0241703 0.0146181
1 0.0156252 0.0155184
0 0.622034 0
0 0.620737 0
0 0.619379 0
0 0.618006 0
0 0.616632 0
0 0.615259 0
0 0.613825 0
0 0.611536 0
0 0.608469 0
0 0.604532 0
0.14461 0.59736 0
0.283497 0.590097 0
0.408621 0.580209 0
0.524361 0.569039 0
0.635019 0.55613 0
0.737972 0.542596 0
0.831144 0.528359 0
0.916289 0.512932 0
0.995224 0.495384 0
1 0.47567 0
1 0.454734 0
1 0.433112 0.00457771
1 0.408011 0.00602731
1 0.384161 0.00729381
1 0.362432 0.00840772
1 0.34316 0.00950637
1 0.326436 0.0101625
1 0.312444 0.0106508
1 0.30106 0.0110475
1 0.291707 0.0113222
1 0.284398 0.0116121
1 0.278569 0.0119478
1 0.274022 0.0119326
0 0.705135 0
0 0.70399 0
0 0.703014 0
0 0.701885 0
0 0.70071 0
0 0.69955 0
0 0.698161 0
0 0.696162 0
0 0.693538 0
0 0.69041 0
0.0101778 0.684596 0
0.206653 0.678309 0
0.35285 0.669535 0
0.481392 0.658946 0
0.600473 0.647288 0
0.709712 0.635035 0
0.807996 0.622904 0
0.895598 0.6103 0
0.97612 0.596551 0
1 0.581186 0
1 0.564981 0
1 0.548898 0
1 0.530953 0
1 0.513741 0.000823987
1 0.498146 0.0016022
1 0.484703 0.00224308
1 0.473396 0.00276188
1 0.463951 0.00314336
1 0.456397 0.00358587
1 0.450126 0.00386053
1 0.445472 0.00419623
1 0.441672 0.00421149
1 0.438743 0.00442512
0 0.789273 0
0 0.788296 0
0 0.787366 0
0 0.786358 0
0 0.785351 0
0 0.784344 0
0 0.783108 0
0 0.781384 0
0 0.779385 0
0 0.776577 0
0 0.772839 0
0.0841993 0.765194 0
0.279377 0.758434 0
0.429221 0.747967 0
0.559335 0.736706 0
0.677195 0.725017 0
0.781186 0.713664 0
0.872419 0.702937 0
0.954147 0.691691 0
1 0.679179 0
1 0.666239 0
1 0.653574 0
1 0.640269 0
1 0.627085 0
1 0.615335 0
1 0.605264 0
1 0.596918 0
1 0.589792 0
1 0.584283 0
1 0.579767 0
1 0.576333 0
1 0.573663 0
1 0.571481 0
0 0.871427 0
0 0.870588 0
0 0.869749 0
0 0.868894 0
0 0.868025 0
0 0.86717 0
0 0.866117 0
0 0.864912 0
0 0.863035 0
0 0.860609 0
0 0.85742 0
0 0.853605 0
0.174655 0.844526 0
0.361685 0.834318 0
0.510033 0.822553 0
0.639048 0.81059 0
0.751156 0.799237 0
0.847089 0.788907 0
0.931121 0.77908 0
1 0.768612 0
1 0.757733 0
1 0.747097 0
1 0.73695 0
1 0.726711 0
1 0.71751 0
1 0.709834 0
1 0.703471 0
1 0.698009 0
1 0.693767 0
1 0.69044 0
1 0.687785 0
1 0.685649 0
1 0.684016 0
0.00640879 0.94963 0.00640879
0.00627146 0.948913 0.00627146
0.00616464 0.948196 0.00616464
0.00605783 0.947448 0.00605783
0.00595102 0.946715 0.00595102
0.00584421 0.945983 0.00584421
0.00572213 0.945083 0.00572213
0.00553903 0.943816 0.00553903
0.00531014 0.942184 0.00531014
0.00500496 0.940078 0.00500496
0.00468452 0.937667 0.00468452
0.00418097 0.934203 0.00418097
0.00341802 0.92987 0.00341802
0.269459 0.916777 0
0.449012 0.903227 0
0.593484 0.890394 0
0.716365 0.878187 0
0.819486 0.867735 0
0.906874 0.858244 0
0.983948 0.849027 0
1 0.839414 0
1 0.830152 0
1 0.821698 0
1 0.813474 0
1 0.806348 0
1 0.800061 0
1 0.795102 0
1 0.790799 0
1 0.787427 0
1 0.784939 0
1 0.782803 0
1 0.78114 0
1 0.779919 0
0.0155642 1 0.0155642
0.0154879 1 0.0154879
0.0154116 1 0.0154116
0.0153353 1 0.0153353
0.0152743 1 0.0152743
0.015198 1 0.015198
0.0151217 1 0.0151217
0.0149844 1 0.0149844
0.0148318 1 0.0148318
0.0147097 1 0.0147097
0.014435 1 0.014435
0.0140688 1 0.0140688
0.0134585 1 0.0134585
0.123384 0.994324 0.00631724
0.369512 0.979461 0
0.537514 0.964477 0
0.674922 0.950835 0
0.787457 0.939452 0
0.880674 0.930144 0
0.960143 0.921309 0
1 0.91252 0
1 0.904173 0
1 0.896681 0
1 0.889601 0
1 0.883604 0
1 0.87837 0
1 0.874311 0
1 0.870741 0
1 0.867887 0
1 0.865736 0
1 0.864195 0
1 0.862837 0
1 0.861784 0
0.020798 1 0.020798
0.020737 1 0.020737
0.0206912 1 0.0206912
0.0206455 1 0.0206455
0.0205844 1 0.0205844
0.0205234 1 0.0205234
0.0204623 1 0.0204623
0.0203708 1 0.0203708
0.020264 1 0.020264
0.0202945 1 0.0202945
0.0201572 1 0.0201572
0.0198978 1 0.0198978
0.0195773 1 0.0195773
0.0193332 1 0.0193332
0.261555 1 0.00474556
0.469673 1 0
0.625254 1 0
0.750423 1 0
0.851209 0.995132 0
0.934798 0.986587 0
1 0.978622 0
1 0.970703 0
1 0.963607 0
1 0.957305 0
1 0.952056 0
1 0.947433 0
1 0.943877 0
1 0.940764 0
1 0.938338 0
1 0.936385 0
1 0.934859 0
1 0.933867 0
1 0.932998 0
0.0242008 1 0.0242008
0.0241703 1 0.0241703
0.0241398 1 0.0241398
0.024094 1 0.024094
0.0240635 1 0.0240635
0.024033 1 0.024033
0.0240024 1 0.0240024
0.0239414 1 0.0239414
0.0238651 1 0.0238651
0.0237583 1 0.0237583
0.0236362 1 0.0236362
0.0237278 1 0.0237278
0.0235142 1 0.0235142
0.0232548 1 0.0232548
0.0944686 1 0.0168612
0.388525 1 0
0.568566 1 0
0.708614 1 0
0.818616 1 0
0.907408 1 0
0.982223 1 0
1 1 0
1 1 0
1 1 0
1 1 0
1 1 0
1 1 0
1 1 0
1 1 0
1 0.998764 0
1 0.99736 0
1 0.996338 0
1 0.995529 0
0.0258183 1 0.0258183
0.0257877 1 0.0257877
0.0257572 1 0.0257572
0.025742 1 0.025742
0.0257267 1 0.0257267
0.0256962 1 0.0256962
0.0256809 1 0.0256809
0.0256352 1 0.0256352
0.0257115 1 0.0257115
0.0257725 1 0.0257725
0.0256809 1 0.0256809
0.0255741 1 0.0255741
0.0254368 1 0.0254368
0.0254368 1 0.0254368
0.0252995 1 0.0252995
0.290883 1 0.00611887
0.507912 1 0
0.66482 1 0
0.785672 1 0
0.880827 1 0
0.958755 1 0
1 1 0
1 1 0
1 1 0
1 1 0
1 1 0
1 1 0
1 1 0
1 1 0
1 1 0
1 1 0
1 1 0
1 1 0
0.0264439 1 0.0264439
0.0264439 1 0.0264439
0.0264439 1 0.0264439
0.0264439 1 0.0264439
0.0264439 1 0.0264439
0.0264439 1 0.0264439
0.0264439 1 0.0264439
0.0264439 1 0.0264439
0.0264439 1 0.0264439
0.0264439 1 0.0264439
0.0264439 1 0.0264439
0.0264439 1 0.0264439
0.0264439 1 0.0264439
0.0264439 1 0.0264439
0.0264286 1 0.0264286
0.169055 1 0.0148623
0.444495 1 0
0.620371 1 0
0.753201 1 0
0.855131 1 0
0.937942 1 0
1 1 0
1 1 0
1 1 0
1 1 0
1 1 0
1 1 0
1 1 0
1 1 0
1 1 0
1 1 0
1 1 0
1 1 0
0.0264439 1 0.0264439
0.0264439 1 0.0264439
0.0264439 1 0.0264439
0.0264439 1 0.0264439
0.0264439 1 0.0264439
0.0264439 1 0.0264439
0.0264439 1 0.0264439
0.0264439 1 0.0264439
0.0264439 1 0.0264439
0.0264439 1 0.0264439
0.0264439 1 0.0264439
0.0264439 1 0.0264439
0.0264439 1 0.0264439
0.0264439 1 0.0264439
0.0264439 1 0.0264439
0.0264439 1 0.0264439
0.378042 1 0
0.577188 1 0
0.722301 1 0
0.832456 1 0
0.917876 1 0
0.988281 1 0
1 1 0
1 1 0
1 1 0
1 1 0
1 1 0
1 1 0
1 1 0
1 1 0
1 1 0
1 1 0
1 1 0
0.0264439 1 0.0264439
0.0264439 1 0.0264439
0.0264439 1 0.0264439
0.0264439 1 0.0264439
0.0264439 1 0.0264439
0.0264439 1 0.0264439
0.0264439 1 0.0264439
0.0264439 1 0.0264439
0.0264439 1 0.0264439
0.0264439 1 0.0264439
0.0264439 1 0.0264439
0.0264439 1 0.0264439
0.0264439 1 0.0264439
0.0264439 1 0.0264439
0.0264439 1 0.0264439
0.0264439 1 0.0264439
0.310063 1 0.00514229
0.536507 1 0
0.693751 1 0
0.811017 1 0
0.900374 1 0
0.972595 1 0
1 1 0
1 1 0
1 1 0
1 1 0
1 1 0
1 1 0
1 1 0
1 1 0
1 1 0
1 1 0
1 1 0
0.0264591 1 0.0264591
0.0264591 1 0.0264591
0.0264439 1 0.0264439
0.0264439 1 0.0264439
0.0264439 1 0.0264439
0.0264439 1 0.0264439
0.0264439 1 0.0264439
0.0264439 1 0.0264439
0.0264439 1 0.0264439
0.0264439 1 0.0264439
0.0264439 1 0.0264439
0.0264439 1 0.0264439
0.0264439 1 0.0264439
0.0264439 1 0.0264439
0.0264439 1 0.0264439
0.0264591 1 0.0264591
0.24239 1 0.0102235
0.499565 1 0
0.667765 1 0
0.791928 1 0
0.884886 1 0
0.95903 1 0
1 1 0
1 1 0
1 1 0
1 1 0
1 1 0
1 1 0
1 1 0
1 1 0
1 1 0
1 1 0
1 1 0
0.0264591 1 0.0264591
0.0264591 1 0.0264591
0.0264439 1 0.0264439
0.0264439 1 0.0264439
0.0264439 1 0.0264439
0.0264439 1 0.0264439
0.0264439 1 0.0264439
0.0264439 1 0.0264439
0.0264439 1 0.0264439
0.0264439 1 0.0264439
0.0264591 1 0.0264591
0.0264439 1 0.0264439
0.0264439 1 0.0264439
0.0264439 1 0.0264439
0.0264591 1 0.0264591
0.0264591 1 0.0264591
0.172946 1 0.0146029
0.466743 1 0
0.645518 1 0
0.775601 1 0
0.872023 1 0
0.947906 1 0
1 1 0
1 1 0
1 1 0
1 1 0
1 1 0
1 1 0
1 1 0
1 1 0
1 1 0
1 1 0
1 1 0
0.0264591 1 0.0264591
0.0264439 1 0.0264439
0.0264439 1 0.0264439
0.0264439 1 0.0264439
0.0264439 1 0.0264439
0.0264439 1 0.0264439
0.0264439 1 0.0264439
0.0264439 1 0.0264439
0.0264439 1 0.0264439
