luts/custom_grade.cube
TITLE "Generated by Resolve"
LUT_3D_SIZE 9
0 0 0
0.112932 0 0
0.315587 0 0
0.600931 0 0
0.91603 0 0
1 0.0145266 0.0145266
1 0.0155032 0.0155032
1 0.0155184 0.0155184
1 0.0154879 0.0154879
0 0.0810407 0
0.0336919 0.0556649 0
0.275105 0.018555 0
0.584024 0 0
0.908095 0 0
1 0.014023 0.014023
1 0.0155337 0.0155337
1 0.0155337 0.0155337
1 0.0155184 0.0155184
0 0.266758 0
0 0.255329 0
0.202121 0.231952 0
0.544961 0.168978 0
0.895354 0 0
1 0.0134585 0.0134585
1 0.0155337 0.0155337
1 0.0155337 0.0155337
1 0.0155337 0.0155337
0 0.541054 0
0 0.53489 0
0 0.525048 0
0.451835 0.493202 0
0.850065 0.432212 0
1 0.332296 0.0056611
1 0.190661 0.0116274
1 0.0695354 0.00854505
1 0.0156252 0.0155184
0 0.871427 0
0 0.868025 0
0 0.863035 0
0.174655 0.844526 0
0.751156 0.799237 0
1 0.757733 0
1 0.71751 0
1 0.693767 0
1 0.684016 0
0.0242008 1 0.0242008
0.0240635 1 0.0240635
0.0238651 1 0.0238651
0.0235142 1 0.0235142
0.568566 1 0
0.982223 1 0
1 1 0
1 1 0
1 0.995529 0
0.0264439 1 0.0264439
0.0264439 1 0.0264439
0.0264439 1 0.0264439
0.0264439 1 0.0264439
0.310063 1 0.00514229
0.900374 1 0
1 1 0
1 1 0
1 1 0
0.0264591 1 0.0264591
0.0264439 1 0.0264439
0.0264439 1 0.0264439
0.0264439 1 0.0264439
0.0264439 1 0.0264439
0.852583 1 0
1 1 0
1 1 0
1 1 0
0.0264744 1 0.0264744
0.0264439 1 0.0264439
0.0264439 1 0.0264439
0.0264439 1 0.0264439
0.0264591 1 0.0264591
0.832609 1 0
1 1 0
1 1 0
1 1 0
0 0 0.0618296
0.102083 0 0.0567483
0.309926 0 0.0467689
0.597787 0 0.0160678
0.914778 0 0
1 0.0144656 0.0144656
1 0.0155337 0.0155337
1 0.0155337 0.0155337
1 0.0155184 0.0155184
0 0.0500038 0.029984
0.0231022 0.0231174 0.0231022
0.275441 0 0.019852
0.581399 0 0
0.906798 0 0
1 0.0139467 0.0139467
1 0.0155489 0.0155489
1 0.0155489 0.0155489
1 0.0155337 0.0155337
0 0.251514 0
0 0.239597 0
0.196277 0.214893 0
0.542062 0.147524 0
0.89398 0 0
1 0.0133822 0.0133822
1 0.0155337 0.0155337
1 0.0155337 0.0155337
1 0.0155337 0.0155337
0 0.532723 0
0 0.526223 0
0 0.516289 0
0.448432 0.484245 0
0.848737 0.421653 0
1 0.318196 0.00610361
1 0.167483 0.0107576
1 0.038529 0.0117189
1 0.0155337 0.0155337
0 0.86688 0
0 0.863706 0
0 0.858442 0
0.166308 0.839918 0
0.749004 0.794659 0
1 0.752834 0
1 0.712367 0
1 0.688243 0
1 0.678447 0
0.024033 1 0.024033
0.0238956 1 0.0238956
0.023682 1 0.023682
0.023331 1 0.023331
0.565957 1 0
0.981369 1 0
1 1 0
1 0.997604 0
1 0.992584 0
0.0264591 1 0.0264591
0.0264439 1 0.0264439
0.0264439 1 0.0264439
0.0264439 1 0.0264439
0.305028 1 0.00549325
0.899107 1 0
1 1 0
1 1 0
1 1 0
0.0264591 1 0.0264591
0.0264439 1 0.0264439
0.0264439 1 0.0264439
0.0264439 1 0.0264439
0.0264439 1 0.0264439
0.851331 1 0
1 1 0
1 1 0
1 1 0
0.0264744 1 0.0264744
0.0264591 1 0.0264591
0.0264591 1 0.0264591
0.0264591 1 0.0264591
0.0264591 1 0.0264591
0.831128 1 0
1 1 0
1 1 0
1 1 0
0 0 0.249104
0.0831922 0 0.247044
0.30135 0 0.239658
0.593805 0 0.217227
0.912947 0 0.190723
1 0.0136721 0.154223
1 0.0146181 0.0950484
1 0.0147097 0.0607767
1 0.0150759 0.0460975
0 0 0.234546
0.00793469 0 0.231083
0.265797 0 0.22594
0.576654 0 0.202029
0.904601 0 0.173098
1 0.0130312 0.131838
1 0.0146639 0.0699626
1 0.0153964 0.0307012
1 0.0155337 0.0159609
0 0.224552 0.19765
0 0.211566 0.194705
0.184894 0.184894 0.184878
0.538018 0.109071 0.164187
0.8916 0 0.144137
1 0.0122988 0.0946365
1 0.0154574 0.0250553
1 0.0155489 0.0155489
1 0.0155337 0.0155337
0 0.519188 0.112337
0 0.512459 0.107393
0 0.502251 0.0996719
0.442176 0.469154 0.0710918
0.846632 0.404425 0.0308995
1 0.295445 0.00683604
1 0.125872 0.00907912
1 0.0155337 0.0155337
1 0.0155337 0.0155337
0 0.860105 0
0 0.856611 0
0 0.851545 0
0.153597 0.832822 0
0.746273 0.787625 0
1 0.745388 0
1 0.70425 0
1 0.679545 0
1 0.669413 0
0.023743 1 0.023743
0.0236057 1 0.0236057
0.0236515 1 0.0236515
0.0230869 1 0.0230869
0.561715 1 0
0.979644 1 0
1 1 0
1 0.993133 0
1 0.988312 0
0.0264591 1 0.0264591
0.0264439 1 0.0264439
0.0264439 1 0.0264439
0.0264439 1 0.0264439
0.297215 1 0.0062562
0.897169 1 0
1 1 0
1 1 0
1 1 0
0.0264591 1 0.0264591
0.0264439 1 0.0264439
0.0264439 1 0.0264439
0.0264439 1 0.0264439
0.0264439 1 0.0264439
0.84918 1 0
1 1 0
1 1 0
1 1 0
0.0264744 1 0.0264744
0.0264591 1 0.0264591
0.0264439 1 0.0264439
0.0264439 1 0.0264439
0.0264591 1 0.0264591
0.829023 1 0
1 1 0
1 1 0
1 1 0
0 0 0.516732
0.0348974 0 0.514046
0.272297 0 0.511589
0.579629 0 0.496071
0.906889 0 0.485069
1 0.0130465 0.479713
1 0.0146181 0.459174
1 0.0146029 0.44715
1 0.0145876 0.442496
0 0 0.509468
0 0 0.507759
0.234379 0 0.504692
0.56199 0 0.488792
0.898589 0 0.476677
1 0.0126955 0.471092
1 0.0146181 0.45034
1 0.0146029 0.438148
1 0.0145876 0.433249
0 0.138186 0.488563
0 0.120165 0.487282
0.153964 0.0839857 0.482734
0.533227 0 0.477104
0.885542 0 0.463249
1 0.011841 0.457282
1 0.0145876 0.436423
1 0.0146029 0.423651
1 0.0145724 0.418692
0 0.480308 0.442893
0 0.473304 0.441154
0 0.462272 0.438346
0.426703 0.426703 0.426673
0.844404 0.353353 0.416663
1 0.221744 0.413108
1 0.0146029 0.395071
1 0.0148318 0.381262
1 0.014847 0.37554
0 0.838727 0.37023
0 0.835157 0.367376
0 0.829953 0.363302
0.109056 0.811063 0.34609
0.733654 0.763622 0.30251
1 0.719158 0.278752
1 0.676555 0.254108
1 0.650721 0.238621
1 0.640238 0.232319
0.0182803 1 0.227008
0.0182193 1 0.223224
0.0180972 1 0.217548
0.0180056 1 0.201358
0.545754 1 0.125963
0.97348 1 0.0396735
1 0.993667 0
1 0.980774 0
1 0.975875 0
0.0264591 1 0.0264591
0.0264439 1 0.0264439
0.0264439 1 0.0264439
0.0264439 1 0.0264439
0.274296 1 0.0078584
0.891966 1 0
1 1 0
1 1 0
1 1 0
0.0264439 1 0.0264439
0.0264439 1 0.0264439
0.0264439 1 0.0264439
0.0264439 1 0.0264439
0.0264439 1 0.0264439
0.843366 1 0
1 1 0
1 1 0
1 1 0
0.0264744 1 0.0264744
0.0264591 1 0.0264591
0.0264439 1 0.0264439
0.0264591 1 0.0264591
0.0264591 1 0.0264591
0.822751 1 0
1 1 0
1 1 0
1 1 0
0 0 0.816983
0 0 0.816175
0.212406 0 0.813275
0.55021 0 0.804242
0.894972 0 0.803052
1 0.0141299 0.811933
1 0.0164187 0.803952
1 0.0163119 0.798688
1 0.0162661 0.796506
0 0 0.813504
0 0 0.812833
0.166964 0 0.809979
0.531395 0 0.800641
0.886259 0 0.798886
1 0.0136568 0.807843
1 0.0163424 0.800107
1 0.0162356 0.794781
1 0.0161898 0.792584
0 0 0.808118
0 0 0.807279
0.0770275 0 0.803998
0.501045 0 0.795636
0.87277 0 0.792401
1 0.0127718 0.800931
1 0.0162203 0.793973
1 0.0161288 0.788312
1 0.0160678 0.786313
0 0.383429 0.777676
0 0.374487 0.776791
0 0.360678 0.775738
0.394232 0.317586 0.775311
0.832853 0.215076 0.772976
1 0.0102693 0.781826
1 0.0158999 0.776333
1 0.0158083 0.770504
1 0.0157778 0.768322
0 0.791852 0.747692
0 0.787945 0.746517
0 0.78201 0.744396
0 0.765179 0.73843
0.71194 0.71194 0.711925
1 0.661173 0.707668
1 0.613153 0.705089
1 0.583734 0.702373
1 0.571557 0.701259
0.00735485 1 0.708675
0.00726329 1 0.707408
0.00708019 1 0.70547
0.00682078 1 0.700526
0.503365 1 0.654154
0.951782 0.978531 0.618204
1 0.95169 0.605814
1 0.938415 0.598642
1 0.933089 0.595728
0.0106813 1 0.648936
0.0106966 1 0.647608
0.0107424 1 0.645548
0.0108339 1 0.64007
0.201297 1 0.612497
0.864729 1 0.55111
1 1 0.533349
1 1 0.525231
1 1 0.521828
0.011368 1 0.613825
0.011368 1 0.612589
0.0114137 1 0.610391
0.0115358 1 0.604471
0.0118257 1 0.590784
0.815518 1 0.514199
1 1 0.493904
1 1 0.484749
1 1 0.480964
0.0116732 1 0.599496
0.0116884 1 0.598016
0.0117189 1 0.595956
0.0118715 1 0.589609
0.0121462 1 0.575708
0.794446 1 0.499245
1 1 0.477714
1 1 0.468223
1 1 0.464317
0 0 1
0 0 1
0.102892 0 1
0.510338 0 1
0.880171 0 1
1 0.019852 1
1 0.022858 1
1 0.0228275 1
1 0.0228122 1
0 0 1
0 0 1
0.0357519 0 1
0.489952 0 1
0.871061 0 1
1 0.0192111 1
1 0.0228428 1
1 0.0228275 1
1 0.022797 1
0 0 1
0 0 1
0 0 1
0.456489 0 1
0.856931 0 1
1 0.0182193 1
1 0.0228122 1
1 0.0227512 1
1 0.0227207 1
0 0.185031 1
0 0.16968 1
0 0.144335 1
0.337377 0.0531167 1
0.815457 0 1
1 0.015671 1
1 0.0225834 1
1 0.0224918 1
1 0.022446 1
0 0.72137 1
0 0.717052 1
0 0.71014 1
0 0.69102 1
0.689754 0.63444 0.99144
1 0.574319 0.996612
1 0.515145 1
1 0.476951 1
1 0.461097 1
0.0059968 1 0.998535
0.00585946 1 0.997833
0.00637827 1 0.997482
0.00605783 1 0.994736
0.458778 0.985031 0.961501
0.933898 0.933883 0.933867
1 0.904555 0.925734
1 0.890242 0.922927
1 0.884642 0.922042
0.0075227 1 0.970413
0.0075227 1 0.969802
0.0075227 1 0.968872
0.00750744 1 0.966278
0.0826123 1 0.954055
0.8392 1 0.898787
1 1 0.887388
1 1 0.884352
1 1 0.883192
0.00758373 1 0.95491
0.00758373 1 0.954284
0.00758373 1 0.953338
0.00762951 1 0.950729
0.00767529 1 0.945098
0.786679 1 0.883909
1 1 0.870314
1 1 0.866392
1 1 0.864897
0.00769055 1 0.948638
0.00769055 1 0.948028
0.00769055 1 0.94728
0.00767529 1 0.944595
0.00766003 1 0.938827
0.764294 1 0.878294
1 1 0.863951
1 1 0.859586
1 1 0.85832
0.00213626 0.00213626 1
0.00213626 0.00213626 1
0.00213626 0.00213626 1
0.474067 0 1
0.866651 0 1
1 0.0235599 1
1 0.0279545 1
1 0.0278477 1
1 0.0277867 1
0.00215152 0.00215152 1
0.00213626 0.00213626 1
0.00213626 0.00213626 1
0.451804 0 1
0.857282 0 1
1 0.0230106 1
1 0.0278782 1
1 0.0277867 1
1 0.0277409 1
0.00213626 0.00213626 1
0.00213626 0.00213626 1
0.00213626 0.00213626 1
0.414984 0 1
0.842451 0 1
1 0.0223392 1
1 0.0277562 1
1 0.0276646 1
1 0.0276188 1
0.00215152 0.00215152 1
0.00213626 0.00213626 1
0.00213626 0.00213626 1
0.291325 0 1
0.799313 0 1
1 0.0198367 1
1 0.0274815 1
1 0.0273899 1
1 0.0273289 1
0 0.653117 1
0 0.648035 1
0 0.640269 1
0 0.618067 1
0.671519 0.557534 1
1 0.485771 1
1 0.409537 1
1 0.357107 1
1 0.334249 1
0.00721752 1 1
0.00714122 1 1
0.00695811 1 1
0.00631724 0.998001 1
0.420752 0.951324 1
0.92134 0.896635 1
1 0.865843 1
1 0.850584 1
1 0.844587 1
0.00825513 1 1
0.00822461 1 1
0.00816358 1 1
0.00823987 1 1
0.00813306 1 1
0.823392 1 1
1 1 1
1 1 1
1 1 1
0.00808728 1 1
0.00807202 1 1
0.00805676 1 1
0.0080415 1 1
0.00801099 1 1
0.768032 1 1
1 1 1
1 1 1
1 1 1
0.00805676 1 1
0.00805676 1 1
0.0080415 1 1
0.00802625 1 1
0.00799573 1 1
0.744595 1 1
1 1 1
1 1 1
1 1 1
0.00213626 0.00213626 1
0.00213626 0.00213626 1
0.00213626 0.00213626 1
0.452903 0 1
0.857664 0 1
1 0.0230259 1
1 0.027985 1
1 0.0279698 1
1 0.0279545 1
0.00213626 0.00213626 1
0.00213626 0.00213626 1
0.00215152 0.00215152 1
0.429572 0 1
0.84828 0 1
1 0.0227207 1
1 0.027985 1
1 0.027985 1
1 0.0279698 1
0.00215152 0.00215152 1
0.00215152 0.00215152 1
0.00213626 0.00213626 1
0.390448 0 1
0.833265 0 1
1 0.0218357 1
1 0.027985 1
1 0.0279698 1
1 0.0279698 1
0.00215152 0.00215152 1
0.00213626 0.00213626 1
0.00213626 0.00213626 1
0.257252 0 1
0.788937 0 1
1 0.0196078 1
1 0.027985 1
1 0.027985 1
1 0.027985 1
0 0.61236 1
0 0.606821 1
0 0.598428 1
0 0.574319 1
0.660655 0.510216 1
1 0.42948 1
1 0.338033 1
1 0.271794 1
1 0.241642 1
0.00691234 0.995407 1
0.00679026 0.992935 1
0.00639353 0.989181 1
0.00585946 0.978805 1
0.398962 0.933593 1
0.915297 0.877089 1
1 0.845457 1
1 0.829313 1
1 0.823102 1
0.00849927 1 1
0.00846876 1 1
0.00866712 1 1
0.00851453 1 1
0.00869764 1 1
0.816175 1 1
1 1 1
1 1 1
1 1 1
0.00839246 1 1
0.0083772 1 1
0.0083772 1 1
0.00834669 1 1
0.0083772 1 1
0.758923 1 1
1 1 1
1 1 1
1 1 1
0.00836194 1 1
0.00836194 1 1
0.00836194 1 1
0.0083772 1 1
0.00842298 1 1
0.734859 1 1
1 1 1
1 1 1
1 1 1
0.00213626 0.00213626 1
0.00213626 0.00213626 1
0.00213626 0.00213626 1
0.444312 0 1
0.854261 0 1
1 0.0229496 1
1 0.027985 1
1 0.027985 1
1 0.0279545 1
0.00215152 0.00215152 1
0.00213626 0.00213626 1
0.00213626 0.00213626 1
0.420462 0 1
0.844602 0 1
1 0.0225071 1
1 0.027985 1
1 0.027985 1
1 0.0279698 1
0.00215152 0.00215152 1
0.00213626 0.00213626 1
0.00213626 0.00213626 1
0.380468 0 1
0.829664 0 1
1 0.021622 1
1 0.027985 1
1 0.0279698 1
1 0.0279698 1
0.00215152 0.00215152 1
0.00213626 0.00213626 1
0.00213626 0.00213626 1
0.243107 0 1
0.784924 0 1
1 0.0194095 1
1 0.0280003 1
1 0.0280003 1
1 0.027985 1
0 0.595239 1
0 0.589715 1
0 0.580804 1
0 0.555932 1
0.655879 0.490211 1
1 0.404547 1
1 0.305165 1
1 0.23064 1
1 0.195178 1
0.00637827 0.987839 1
0.00646983 0.98555 1
0.00605783 0.981735 1
0.00546273 0.971191 1
0.389838 0.926528 1
0.912673 0.869078 1
1 0.837095 1
1 0.82092 1
1 0.814542 1
0.00866712 1 1
0.00862135 1 1
0.00857557 1 1
0.00868238 1 1
0.00862135 1 1
0.813016 1 1
1 1 1
1 1 1
1 1 1
0.00840772 1 1
0.00839246 1 1
0.00839246 1 1
0.00839246 1 1
0.00840772 1 1
0.755383 1 1
1 1 1
1 1 1
1 1 1
0.0084535 1 1
0.00842298 1 1
0.00840772 1 1
0.00842298 1 1
0.00842298 1 1
0.731121 1 1
1 1 1
1 1 1
1 1 1
