luts/custom_grade.cube
TITLE "Generated by Resolve"
LUT_3D_SIZE 5
0 0 0
0.315587 0 0
0.91603 0 0
1 0.0155032 0.0155032
1 0.0154879 0.0154879
0 0.266758 0
0.202121 0.231952 0
0.895354 0 0
1 0.0155337 0.0155337
1 0.0155337 0.0155337
0 0.871427 0
0 0.863035 0
0.751156 0.799237 0
1 0.71751 0
1 0.684016 0
0.0264439 1 0.0264439
0.0264439 1 0.0264439
0.310063 1 0.00514229
1 1 0
1 1 0
0.0264744 1 0.0264744
0.0264439 1 0.0264439
0.0264591 1 0.0264591
1 1 0
1 1 0
0 0 0.249104
0.30135 0 0.239658
0.912947 0 0.190723
1 0.0146181 0.0950484
1 0.0150759 0.0460975
0 0.224552 0.19765
0.184894 0.184894 0.184878
0.8916 0 0.144137
1 0.0154574 0.0250553
1 0.0155337 0.0155337
0 0.860105 0
0 0.851545 0
0.746273 0.787625 0
1 0.70425 0
1 0.669413 0
0.0264591 1 0.0264591
0.0264439 1 0.0264439
0.297215 1 0.0062562
1 1 0
1 1 0
0.0264744 1 0.0264744
0.0264439 1 0.0264439
0.0264591 1 0.0264591
1 1 0
1 1 0
0 0 0.816983
0.212406 0 0.813275
0.894972 0 0.803052
1 0.0164187 0.803952
1 0.0162661 0.796506
0 0 0.808118
0.0770275 0 0.803998
0.87277 0 0.792401
1 0.0162203 0.793973
1 0.0160678 0.786313
0 0.791852 0.747692
0 0.78201 0.744396
0.71194 0.71194 0.711925
1 0.613153 0.705089
1 0.571557 0.701259
0.0106813 1 0.648936
0.0107424 1 0.645548
0.201297 1 0.612497
1 1 0.533349
1 1 0.521828
0.0116732 1 0.599496
0.0117189 1 0.595956
0.0121462 1 0.575708
1 1 0.477714
1 1 0.464317
0.00213626 0.00213626 1
0.00213626 0.00213626 1
0.866651 0 1
1 0.0279545 1
1 0.0277867 1
0.00213626 0.00213626 1
0.00213626 0.00213626 1
0.842451 0 1
1 0.0277562 1
1 0.0276188 1
0 0.653117 1
0 0.640269 1
0.671519 0.557534 1
1 0.409537 1
1 0.334249 1
0.00825513 1 1
0.00816358 1 1
0.00813306 1 1
1 1 1
1 1 1
0.00805676 1 1
0.0080415 1 1
0.00799573 1 1
1 1 1
1 1 1
0.00213626 0.00213626 1
0.00213626 0.00213626 1
0.854261 0 1
1 0.027985 1
1 0.0279545 1
0.00215152 0.00215152 1
0.00213626 0.00213626 1
0.829664 0 1
1 0.027985 1
1 0.0279698 1
0 0.595239 1
0 0.580804 1
0.655879 0.490211 1
1 0.305165 1
1 0.195178 1
0.00866712 1 1
0.00857557 1 1
0.00862135 1 1
1 1 1
1 1 1
0.0084535 1 1
0.00840772 1 1
0.00842298 1 1
1 1 1
1 1 1
