luts/slog3-to-rec709.cube
# S-Log3 / S-Gamut3.Cine to Rec.709
# Generated by immich-slog-grader tools/make-lut.mjs
# white=12 gray=0.18 contrast=1 saturation=1
# Input domain is S-Log3 code values 0..1 over the full 0..1023 numbering.
LUT_3D_SIZE 33
DOMAIN_MIN 0.0 0.0 0.0
DOMAIN_MAX 1.0 1.0 1.0
0.000000 0.000000 0.000000
0.000000 0.000000 0.000000
0.000000 0.000000 0.000000
0.000000 0.000000 0.000000
0.000000 0.000000 0.000000
0.000000 0.000000 0.000000
0.000000 0.000000 0.000000
0.000000 0.000000 0.000000
0.000000 0.000000 0.000000
0.000000 0.000000 0.000000
0.088871 0.000000 0.006621
0.181111 0.000000 0.016368
0.260190 0.000000 0.029280
0.334790 0.000000 0.046363
0.407444 0.000000 0.068922
0.478755 0.000000 0.097952
0.548376 0.000000 0.129794
0.615426 0.000000 0.164586
0.678768 0.000000 0.202688
0.737251 0.000000 0.244369
0.789924 0.000000 0.289780
0.836185 0.000000 0.338915
0.875840 0.000000 0.391564
0.909081 0.000000 0.447263
0.936397 0.000000 0.505253
0.958465 0.000000 0.564476
0.976038 0.000000 0.623618
0.989870 0.000000 0.681215
1.000000 0.000000 0.735807
1.000000 0.000000 0.786116
1.000000 0.000000 0.831193
1.000000 0.000000 0.870508
1.000000 0.000000 0.903956
0.000000 0.000000 0.000000
0.000000 0.000000 0.000000
0.000000 0.000000 0.000000
0.000000 0.000000 0.000000
0.000000 0.000000 0.000000
0.000000 0.000000 0.000000
0.000000 0.000000 0.000000
0.000000 0.000000 0.000000
0.014927 0.000201 0.000000
0.091489 0.000000 0.000763
0.164855 0.000000 0.004747
0.231715 0.000000 0.011996
0.296964 0.000000 0.023050
0.362296 0.000000 0.038759
0.428158 0.000000 0.060316
0.494269 0.000000 0.089355
0.559842 0.000000 0.122332
0.623740 0.000000 0.158182
0.684660 0.000000 0.197248
0.741323 0.000000 0.239794
0.792665 0.000000 0.285973
0.837984 0.000000 0.335786
0.876993 0.000000 0.389029
0.909804 0.000000 0.445242
0.936842 0.000000 0.503672
0.958734 0.000000 0.563266
0.976199 0.000000 0.622715
0.989966 0.000000 0.680559
1.000000 0.000000 0.735344
1.000000 0.000000 0.785798
1.000000 0.000000 0.830980
1.000000 0.000000 0.870370
1.000000 0.000000 0.903868
0.000000 0.000000 0.000000
0.000000 0.000000 0.000000
0.000000 0.000000 0.000000
0.000000 0.000000 0.000000
0.000000 0.000000 0.000000
0.000000 0.000000 0.000000
0.009046 0.002214 0.000000
0.038267 0.006496 0.000000
0.085739 0.009541 0.000000
0.144042 0.010479 0.000000
0.205961 0.008282 0.000000
0.271522 0.001763 0.000000
0.329435 0.000000 0.009680
0.387396 0.000000 0.025750
0.447459 0.000000 0.047625
0.508936 0.000000 0.076928
0.570797 0.000000 0.112656
0.631751 0.000000 0.150416
0.690375 0.000000 0.190963
0.745294 0.000000 0.234694
0.795351 0.000000 0.281841
0.839753 0.000000 0.332456
0.878130 0.000000 0.386369
0.910519 0.000000 0.443145
0.937283 0.000000 0.502046
0.959001 0.000000 0.562030
0.976359 0.000000 0.621797
0.990060 0.000000 0.679895
1.000000 0.000000 0.734876
1.000000 0.000000 0.785478
1.000000 0.000000 0.830767
1.000000 0.000000 0.870232
1.000000 0.000000 0.903780
0.000000 0.000000 0.000000
0.000000 0.000000 0.000000
0.001717 0.003399 0.000000
0.008002 0.008922 0.000000
0.017654 0.013445 0.000000
0.030090 0.017139 0.000000
0.048863 0.020794 0.000000
0.079936 0.024467 0.000000
0.121931 0.027328 0.000000
0.169989 0.028572 0.000000
0.224152 0.027163 0.000000
0.283842 0.021834 0.000000
0.348115 0.011067 0.000000
0.410545 0.000000 0.006709
0.465546 0.000000 0.030485
0.522846 0.000000 0.061240
0.581285 0.000000 0.100255
0.639476 0.000000 0.141068
0.695922 0.000000 0.183736
0.749168 0.000000 0.229024
0.797984 0.000000 0.277362
0.841494 0.000000 0.328914
0.879253 0.000000 0.383581
0.911227 0.000000 0.440971
0.937720 0.000000 0.500374
0.959267 0.000000 0.560767
0.976519 0.000000 0.620864
0.990155 0.000000 0.679222
1.000000 0.000000 0.734404
1.000000 0.000000 0.785155
1.000000 0.000000 0.830552
1.000000 0.000000 0.870093
1.000000 0.000000 0.903692
0.000000 0.019215 0.003377
0.001238 0.026577 0.000000
0.009968 0.031370 0.000000
0.021275 0.035395 0.000000
0.034773 0.038766 0.000000
0.050138 0.041572 0.000000
0.071577 0.044402 0.000000
0.103576 0.047304 0.000000
0.141541 0.049610 0.000000
0.185749 0.050608 0.000000
0.236237 0.049322 0.000000
0.292644 0.044490 0.000000
0.354174 0.034543 0.000000
0.419610 0.017565 0.000000
0.482579 0.000000 0.008502
0.536074 0.000000 0.042020
0.591340 0.000000 0.084314
0.646935 0.000000 0.129838
0.701308 0.000000 0.175444
0.752950 0.000000 0.222732
0.800564 0.000000 0.272512
0.843208 0.000000 0.325151
0.880361 0.000000 0.380661
0.911927 0.000000 0.438717
0.938154 0.000000 0.498655
0.959531 0.000000 0.559477
0.976677 0.000000 0.619915
0.990249 0.000000 0.678540
1.000000 0.000000 0.733927
1.000000 0.000000 0.784829
1.000000 0.000000 0.830337
1.000000 0.000000 0.869953
1.000000 0.000000 0.903604
0.000000 0.049069 0.008633
0.000000 0.057260 0.000357
0.012680 0.060898 0.000000
0.027481 0.063871 0.000000
0.043810 0.066384 0.000000
0.061459 0.068491 0.000000
0.085324 0.070625 0.000000
0.116729 0.072810 0.000000
0.153473 0.074500 0.000000
0.196037 0.075067 0.000000
0.244636 0.073612 0.000000
0.299108 0.068919 0.000000
0.358843 0.059419 0.000000
0.422756 0.043146 0.000000
0.489331 0.017665 0.000000
0.548687 0.000000 0.019030
0.600996 0.000000 0.064236
0.654142 0.000000 0.116294
0.706541 0.000000 0.165931
0.756642 0.000000 0.215754
0.803095 0.000000 0.267266
0.844893 0.000000 0.321153
0.881455 0.000000 0.377601
0.912621 0.000000 0.436382
0.938585 0.000000 0.496888
0.959794 0.000000 0.558159
0.976835 0.000000 0.618950
0.990343 0.000000 0.677849
1.000000 0.000000 0.733444
1.000000 0.000000 0.784502
1.000000 0.000000 0.830119
1.000000 0.000000 0.869813
1.000000 0.000000 0.903515
0.000000 0.086364 0.015210
0.000000 0.094262 0.004373
0.012037 0.098071 0.000000
0.029939 0.099889 0.000000
0.048880 0.101410 0.000000
0.068723 0.102668 0.000000
0.094318 0.103918 0.000000
0.126039 0.105144 0.000000
0.162550 0.105977 0.000000
0.204379 0.105958 0.000000
0.251846 0.104386 0.000000
0.304948 0.100209 0.000000
0.363257 0.091800 0.000000
0.425849 0.076227 0.000000
0.491324 0.051584 0.000000
0.557893 0.014846 0.000000
0.612561 0.000000 0.035304
0.662830 0.000000 0.095040
0.712886 0.000000 0.151986
0.761142 0.000000 0.205941
0.806193 0.000000 0.260095
0.846966 0.000000 0.315802
0.882805 0.000000 0.373569
0.913478 0.000000 0.433340
0.939118 0.000000 0.494607
0.960120 0.000000 0.556469
0.977031 0.000000 0.617720
0.990459 0.000000 0.676973
1.000000 0.000000 0.732835
1.000000 0.000000 0.784088
1.000000 0.000000 0.829846
1.000000 0.000000 0.869636
1.000000 0.000000 0.903404
0.000000 0.129828 0.024433
0.000000 0.136040 0.011546
0.007147 0.140500 0.000000
0.028012 0.141312 0.000000
0.049543 0.141978 0.000000
0.071637 0.142510 0.000000
0.099128 0.143005 0.000000
0.132051 0.143412 0.000000
0.169183 0.143501 0.000000
0.211064 0.142949 0.000000
0.258074 0.141250 0.000000
0.310325 0.137632 0.000000
0.367550 0.130919 0.000000
0.429002 0.119244 0.000000
0.493435 0.099306 0.000000
0.559162 0.064579 0.000000
0.624224 0.013070 0.000000
0.674443 0.000000 0.054761
0.721429 0.000000 0.127489
0.767239 0.000000 0.189797
0.810415 0.000000 0.248770
0.849805 0.000000 0.307590
0.884662 0.000000 0.367509
0.914663 0.000000 0.428841
0.939858 0.000000 0.491273
0.960573 0.000000 0.554023
0.977305 0.000000 0.615951
0.990622 0.000000 0.675719
1.000000 0.000000 0.731966
1.000000 0.000000 0.783501
1.000000 0.000000 0.829459
1.000000 0.000000 0.869387
1.000000 0.000000 0.903246
0.000000 0.174437 0.036646
0.000000 0.179428 0.022239
0.000000 0.184565 0.002915
0.020453 0.185435 0.000000
0.044298 0.185594 0.000000
0.068474 0.185685 0.000000
0.098356 0.185709 0.000000
0.133413 0.185589 0.000000
0.172036 0.185179 0.000000
0.214807 0.184249 0.000000
0.262147 0.182434 0.000000
0.314243 0.179171 0.000000
0.370945 0.173604 0.000000
0.431660 0.164412 0.000000
0.495304 0.149451 0.000000
0.560320 0.124817 0.000000
0.624832 0.081456 0.000000
0.686872 0.010214 0.000000
0.732155 0.000000 0.080684
0.774959 0.000000 0.162894
0.815801 0.000000 0.231088
0.853451 0.000000 0.295286
0.887061 0.000000 0.358691
0.916202 0.000000 0.422432
0.940823 0.000000 0.486603
0.961166 0.000000 0.550637
0.977663 0.000000 0.613528
0.990836 0.000000 0.674014
1.000000 0.000000 0.730792
1.000000 0.000000 0.782711
1.000000 0.000000 0.828939
1.000000 0.000000 0.869053
1.000000 0.000000 0.903037
0.000000 0.221238 0.052797
0.000000 0.225279 0.037278
0.000000 0.229413 0.017945
0.006095 0.232628 0.000000
0.031938 0.232502 0.000000
0.057978 0.232341 0.000000
0.090678 0.232093 0.000000
0.129157 0.231664 0.000000
0.170302 0.230958 0.000000
0.214870 0.229806 0.000000
0.263371 0.227939 0.000000
0.316066 0.224949 0.000000
0.372896 0.220208 0.000000
0.433395 0.212764 0.000000
0.496622 0.201133 0.000000
0.561167 0.182858 0.000000
0.625263 0.153352 0.000000
0.687001 0.101584 0.000000
0.744607 0.006043 0.000000
0.784608 0.000000 0.112006
0.822597 0.000000 0.201590
0.858091 0.000000 0.276037
0.890137 0.000000 0.345453
0.918187 0.000000 0.413090
0.942074 0.000000 0.479940
0.961939 0.000000 0.545887
0.978133 0.000000 0.610170
0.991117 0.000000 0.671676
1.000000 0.000000 0.729194
1.000000 0.000000 0.781642
1.000000 0.000000 0.828240
1.000000 0.000000 0.868606
1.000000 0.000000 0.902756
0.000000 0.270795 0.074123
0.000000 0.274069 0.057814
0.000000 0.277400 0.038561
0.000000 0.280807 0.015768
0.010919 0.282801 0.000000
0.038567 0.282513 0.000000
0.073235 0.282128 0.000000
0.117540 0.281546 0.000000
0.162753 0.280702 0.000000
0.210285 0.279464 0.000000
0.260922 0.277632 0.000000
0.315071 0.274902 0.000000
0.372780 0.270815 0.000000
0.433692 0.264678 0.000000
0.496997 0.255432 0.000000
0.561426 0.241411 0.000000
0.625336 0.219813 0.000000
0.686910 0.185285 0.000000
0.744415 0.124549 0.000000
0.796464 0.000218 0.000000
0.831053 0.000000 0.145823
0.863924 0.000000 0.243835
0.894041 0.000000 0.324680
0.920727 0.000000 0.399026
0.943686 0.000000 0.470203
0.962941 0.000000 0.539098
0.978744 0.000000 0.605452
0.991485 0.000000 0.668432
1.000000 0.000000 0.726999
1.000000 0.000000 0.780185
1.000000 0.000000 0.827293
1.000000 0.000000 0.868003
1.000000 0.000000 0.902379
0.000000 0.323353 0.101135
0.000000 0.325993 0.085570
0.000000 0.328667 0.066281
0.000000 0.331384 0.044571
0.000000 0.334154 0.019851
0.008169 0.336085 0.000000
0.044497 0.335654 0.000000
0.094963 0.335027 0.000000
0.147230 0.334158 0.000000
0.199578 0.332942 0.000000
0.253692 0.331224 0.000000
0.310366 0.328777 0.000000
0.369853 0.325259 0.000000
0.431941 0.320163 0.000000
0.495948 0.312724 0.000000
0.560739 0.301772 0.000000
0.624805 0.285446 0.000000
0.686440 0.260562 0.000000
0.743983 0.220920 0.000000
0.796082 0.150710 0.000000
0.841404 0.000000 0.007698
0.871155 0.000000 0.182769
0.898936 0.000000 0.289770
0.923946 0.000000 0.376864
0.945747 0.000000 0.455493
0.964231 0.000000 0.529146
0.979536 0.000000 0.598691
0.991963 0.000000 0.663864
1.000000 0.000000 0.723951
1.000000 0.000000 0.778184
1.000000 0.000000 0.826003
1.000000 0.000000 0.867186
1.000000 0.000000 0.901872
0.000000 0.378859 0.130883
0.000000 0.380969 0.117692
0.000000 0.383100 0.101914
0.000000 0.385254 0.082533
0.000000 0.387436 0.059306
0.000000 0.389650 0.033896
0.001694 0.392326 0.000000
0.054532 0.391723 0.000000
0.119309 0.390903 0.000000
0.180157 0.389783 0.000000
0.239953 0.388242 0.000000
0.300696 0.386104 0.000000
0.363153 0.383114 0.000000
0.427379 0.378898 0.000000
0.492875 0.372900 0.000000
0.558654 0.364284 0.000000
0.623347 0.351766 0.000000
0.685372 0.333277 0.000000
0.743174 0.305226 0.000000
0.795461 0.260479 0.000000
0.841396 0.180388 0.000000
0.879960 0.000000 0.018305
0.904981 0.000000 0.223150
0.927971 0.000000 0.339384
0.948354 0.000000 0.432191
0.965878 0.000000 0.514049
0.980555 0.000000 0.588749
0.992583 0.000000 0.657304
1.000000 0.000000 0.719651
1.000000 0.000000 0.775400
1.000000 0.000000 0.824228
1.000000 0.000000 0.866073
1.000000 0.000000 0.901185
0.000000 0.436959 0.163788
0.000000 0.438624 0.152649
0.000000 0.440300 0.139923
0.000000 0.441990 0.125192
0.000000 0.443694 0.107824
0.000000 0.445414 0.086786
0.000000 0.447594 0.054761
0.000000 0.450708 0.004477
0.067411 0.450290 0.000000
0.146693 0.449311 0.000000
0.216654 0.447983 0.000000
0.284076 0.446171 0.000000
0.351280 0.443683 0.000000
0.418975 0.440240 0.000000
0.487001 0.435437 0.000000
0.554587 0.428674 0.000000
0.620536 0.419050 0.000000
0.683416 0.405165 0.000000
0.741795 0.384740 0.000000
0.794481 0.353757 0.000000
0.840701 0.304069 0.000000
0.880177 0.213864 0.000000
0.912308 0.000000 0.032438
0.932926 0.000000 0.267174
0.951607 0.000000 0.392460
0.967958 0.000000 0.489979
0.981855 0.000000 0.573591
0.993380 0.000000 0.647620
1.000000 0.000000 0.713457
1.000000 0.000000 0.771465
1.000000 0.000000 0.821755
1.000000 0.000000 0.864539
1.000000 0.000000 0.900246
0.000000 0.496967 0.200154
0.000000 0.498260 0.190795
0.000000 0.499558 0.180449
0.000000 0.500863 0.168935
0.000000 0.502176 0.156007
0.000000 0.503498 0.141333
0.000000 0.505164 0.119747
0.000000 0.507529 0.079936
0.000000 0.510721 0.012896
0.084341 0.510587 0.000000
0.177469 0.509487 0.000000
0.256962 0.508001 0.000000
0.331984 0.505984 0.000000
0.405194 0.503229 0.000000
0.477234 0.499441 0.000000
0.547752 0.494188 0.000000
0.615812 0.486837 0.000000
0.680180 0.476425 0.000000
0.739587 0.461447 0.000000
0.792976 0.439423 0.000000
0.839677 0.405894 0.000000
0.879486 0.351640 0.000000
0.912631 0.251352 0.000000
0.938909 0.000000 0.051196
0.955601 0.000000 0.314911
0.970549 0.000000 0.448522
0.983495 0.000000 0.549242
0.994395 0.000000 0.632775
1.000000 0.000000 0.704279
1.000000 0.000000 0.765781
1.000000 0.000000 0.818254
1.000000 0.000000 0.862401
1.000000 0.000000 0.898953
0.000000 0.557882 0.240223
0.000000 0.558865 0.232409
0.000000 0.559851 0.223977
0.000000 0.560841 0.214846
0.000000 0.561834 0.204912
0.000000 0.562832 0.194051
0.000000 0.564087 0.178903
0.000000 0.565859 0.153907
0.000000 0.568235 0.110553
0.000000 0.571439 0.024227
0.104374 0.571535 0.000000
0.211935 0.570357 0.000000
0.301203 0.568771 0.000000
0.383517 0.566623 0.000000
0.461913 0.563699 0.000000
0.537015 0.559692 0.000000
0.608393 0.554156 0.000000
0.675129 0.546429 0.000000
0.736193 0.535504 0.000000
0.790718 0.519789 0.000000
0.838186 0.496619 0.000000
0.878508 0.461112 0.000000
0.911995 0.402939 0.000000
0.939259 0.292970 0.000000
0.960407 0.000000 0.075998
0.973723 0.000000 0.366254
0.985534 0.000000 0.506803
0.995675 0.000000 0.608726
1.000000 0.000000 0.690127
1.000000 0.000000 0.757326
1.000000 0.000000 0.813184
1.000000 0.000000 0.859368
1.000000 0.000000 0.897148
0.000000 0.618432 0.284137
0.000000 0.619162 0.277665
0.000000 0.619894 0.270806
0.000000 0.620627 0.263521
0.000000 0.621363 0.255765
0.000000 0.622100 0.247487
0.000000 0.623026 0.236298
0.000000 0.624330 0.218770
0.000000 0.626071 0.191317
0.000000 0.628402 0.143701
0.000000 0.631542 0.039359
0.127391 0.631810 0.000000
0.250319 0.630602 0.000000
0.349340 0.628976 0.000000
0.438263 0.626778 0.000000
0.520607 0.623793 0.000000
0.597121 0.619708 0.000000
0.667503 0.614071 0.000000
0.731119 0.606211 0.000000
0.787390 0.595095 0.000000
0.836030 0.579069 0.000000
0.877123 0.555321 0.000000
0.911113 0.518591 0.000000
0.938702 0.457457 0.000000
0.960742 0.338705 0.000000
0.977533 0.000000 0.106727
0.988029 0.000000 0.420861
0.997266 0.000000 0.566234
1.000000 0.000000 0.666992
1.000000 0.000000 0.744210
1.000000 0.000000 0.805611
1.000000 0.000000 0.854964
1.000000 0.000000 0.894583
0.000000 0.677184 0.331903
0.000000 0.677713 0.326596
0.000000 0.678243 0.321046
0.000000 0.678773 0.315235
0.000000 0.679304 0.309142
0.000000 0.679836 0.302746
0.000000 0.680503 0.294276
0.000000 0.681441 0.281413
0.000000 0.682690 0.262288
0.000000 0.684355 0.232248
0.000000 0.686582 0.179997
0.000000 0.689580 0.059459
0.153712 0.689963 0.000000
0.292750 0.688771 0.000000
0.401129 0.687168 0.000000
0.495521 0.685003 0.000000
0.580150 0.682063 0.000000
0.656146 0.678043 0.000000
0.723636 0.672497 0.000000
0.782541 0.664759 0.000000
0.832932 0.653795 0.000000
0.875167 0.637928 0.000000
0.909888 0.614254 0.000000
0.937941 0.577215 0.000000
0.960272 0.514393 0.000000
0.977830 0.388359 0.000000
0.991016 0.000000 0.139899
0.999208 0.000000 0.478110
1.000000 0.000000 0.625497
1.000000 0.000000 0.722565
1.000000 0.000000 0.793794
1.000000 0.000000 0.848363
1.000000 0.000000 0.890852
0.000000 0.732711 0.383336
0.000000 0.733083 0.379038
0.000000 0.733456 0.374588
0.000000 0.733829 0.369977
0.000000 0.734203 0.365197
0.000000 0.734576 0.360236
0.000000 0.735045 0.353759
0.000000 0.735703 0.344123
0.000000 0.736577 0.330243
0.000000 0.737739 0.309538
0.000000 0.739289 0.276877
0.000000 0.741359 0.219744
0.000000 0.744142 0.086209
0.183633 0.744589 0.000000
0.339216 0.743455 0.000000
0.456068 0.741930 0.000000
0.554288 0.739872 0.000000
0.639180 0.737077 0.000000
0.712624 0.733255 0.000000
0.775496 0.727979 0.000000
0.828491 0.720605 0.000000
0.872401 0.710127 0.000000
0.908182 0.694888 0.000000
0.936896 0.671965 0.000000
0.959635 0.635626 0.000000
0.977444 0.572653 0.000000
0.991268 0.441497 0.000000
1.000000 0.000000 0.176101
1.000000 0.000000 0.537080
1.000000 0.000000 0.683126
1.000000 0.000000 0.774111
1.000000 0.000000 0.838004
1.000000 0.000000 0.885239
0.000000 0.783762 0.438014
0.000000 0.784017 0.434585
0.000000 0.784272 0.431061
0.000000 0.784527 0.427439
0.000000 0.784782 0.423713
0.000000 0.785038 0.419881
0.000000 0.785358 0.414927
0.000000 0.785807 0.407661
0.000000 0.786404 0.397414
0.000000 0.787195 0.382608
0.000000 0.788248 0.360430
0.000000 0.789649 0.325235
0.000000 0.791521 0.263152
0.000000 0.794033 0.116944
0.217410 0.794498 0.000000
0.389514 0.793456 0.000000
0.513360 0.792056 0.000000
0.613290 0.790164 0.000000
0.696222 0.787595 0.000000
0.765196 0.784080 0.000000
0.822098 0.779220 0.000000
0.868479 0.772415 0.000000
0.905797 0.762710 0.000000
0.935455 0.748518 0.000000
0.958768 0.726977 0.000000
0.976925 0.692341 0.000000
0.990957 0.630892 0.000000
1.000000 0.497405 0.000000
1.000000 0.000000 0.215675
1.000000 0.000000 0.596563
1.000000 0.000000 0.737666
1.000000 0.000000 0.820595
1.000000 0.000000 0.876387
0.000000 0.829418 0.495227
0.000000 0.829588 0.492539
0.000000 0.829758 0.489793
0.000000 0.829928 0.486988
0.000000 0.830098 0.484120
0.000000 0.830268 0.481189
0.000000 0.830481 0.477427
0.000000 0.830779 0.471966
0.000000 0.831176 0.464378
0.000000 0.831701 0.453647
0.000000 0.832399 0.438084
0.000000 0.833326 0.414648
0.000000 0.834560 0.377169
0.000000 0.836206 0.310305
0.000000 0.838413 0.150499
0.255240 0.838862 0.000000
0.443204 0.837935 0.000000
0.571916 0.836689 0.000000
0.671079 0.835005 0.000000
0.749853 0.832717 0.000000
0.812783 0.829582 0.000000
0.862865 0.825243 0.000000
0.902438 0.819151 0.000000
0.933455 0.810432 0.000000
0.957582 0.797606 0.000000
0.976222 0.777961 0.000000
0.990541 0.745907 0.000000
1.000000 0.687627 0.000000
1.000000 0.555073 0.000000
1.000000 0.000000 0.258860
1.000000 0.000000 0.655150
1.000000 0.000000 0.787855
1.000000 0.000000 0.861387
0.000000 0.869179 0.553966
0.000000 0.869289 0.551904
0.000000 0.869399 0.549806
0.000000 0.869510 0.547673
0.000000 0.869620 0.545502
0.000000 0.869730 0.543293
0.000000 0.869868 0.540475
0.000000 0.870062 0.536415
0.000000 0.870319 0.530833
0.000000 0.870659 0.523058
0.000000 0.871111 0.512028
0.000000 0.871710 0.495958
0.000000 0.872506 0.471602
0.000000 0.873565 0.432281
0.000000 0.874976 0.361111
0.000000 0.876865 0.187252
0.297222 0.877277 0.000000
0.499560 0.876475 0.000000
0.630393 0.875398 0.000000
0.726177 0.873941 0.000000
0.798877 0.871960 0.000000
0.854694 0.869244 0.000000
0.897647 0.865478 0.000000
0.930652 0.860178 0.000000
0.955943 0.852565 0.000000
0.975263 0.841301 0.000000
0.989980 0.823893 0.000000
1.000000 0.795081 0.000000
1.000000 0.741390 0.000000
1.000000 0.613223 0.000000
1.000000 0.000000 0.305764
1.000000 0.000000 0.711359
1.000000 0.000000 0.832763
0.000000 0.902964 0.612958
0.000000 0.903034 0.611412
0.000000 0.903103 0.609846
0.000000 0.903173 0.608258
0.000000 0.903243 0.606649
0.000000 0.903313 0.605017
0.000000 0.903401 0.602944
0.000000 0.903523 0.599975
0.000000 0.903686 0.595925
0.000000 0.903902 0.590347
0.000000 0.904188 0.582557
0.000000 0.904567 0.571462
0.000000 0.905069 0.555215
0.000000 0.905737 0.530403
0.000000 0.906624 0.489889
0.000000 0.907806 0.415253
0.000000 0.909387 0.227503
0.343321 0.909748 0.000000
0.557560 0.909073 0.000000
0.687314 0.908165 0.000000
0.777252 0.906936 0.000000
0.842460 0.905265 0.000000
0.890674 0.902970 0.000000
0.926662 0.899784 0.000000
0.953652 0.895290 0.000000
0.973944 0.888811 0.000000
0.989218 0.879176 0.000000
1.000000 0.864161 0.000000
1.000000 0.838971 0.000000
1.000000 0.790905 0.000000
1.000000 0.670396 0.000000
1.000000 0.000000 0.356320
1.000000 0.000000 0.763810
0.000000 0.931046 0.670750
0.000000 0.931089 0.669622
0.000000 0.931133 0.668482
0.000000 0.931176 0.667329
0.000000 0.931219 0.666164
0.000000 0.931263 0.664987
0.000000 0.931317 0.663495
0.000000 0.931393 0.661368
0.000000 0.931494 0.658486
0.000000 0.931628 0.654548
0.000000 0.931806 0.649113
0.000000 0.932041 0.641500
0.000000 0.932352 0.630613
0.000000 0.932766 0.614576
0.000000 0.933314 0.589873
0.000000 0.934043 0.549011
0.000000 0.935013 0.472139
0.000000 0.936309 0.271445
0.393316 0.936616 0.000000
0.615914 0.936060 0.000000
0.741214 0.935311 0.000000
0.823279 0.934297 0.000000
0.880196 0.932917 0.000000
0.920851 0.931021 0.000000
0.950397 0.928385 0.000000
0.972106 0.924659 0.000000
0.988172 0.919270 0.000000
1.000000 0.911218 0.000000
1.000000 0.898577 0.000000
1.000000 0.877109 0.000000
1.000000 0.835235 0.000000
1.000000 0.725095 0.000000
1.000000 0.000000 0.410237
0.000000 0.953947 0.725862
0.000000 0.953974 0.725062
0.000000 0.954000 0.724254
0.000000 0.954027 0.723440
0.000000 0.954053 0.722618
0.000000 0.954080 0.721790
0.000000 0.954113 0.720743
0.000000 0.954160 0.719256
0.000000 0.954221 0.717250
0.000000 0.954303 0.714528
0.000000 0.954411 0.710803
0.000000 0.954554 0.705650
0.000000 0.954744 0.698408
0.000000 0.954996 0.688008
0.000000 0.955330 0.672590
0.000000 0.955773 0.648618
0.000000 0.956361 0.608390
0.000000 0.957144 0.530880
0.000000 0.958189 0.319139
0.446744 0.958443 0.000000
0.673162 0.957992 0.000000
0.790825 0.957386 0.000000
0.863639 0.956565 0.000000
0.912089 0.955447 0.000000
0.945651 0.953909 0.000000
0.969493 0.951769 0.000000
0.986716 0.948737 0.000000
0.999303 0.944343 0.000000
1.000000 0.937748 0.000000
1.000000 0.927328 0.000000
1.000000 0.909443 0.000000
1.000000 0.873865 0.000000
1.000000 0.775959 0.000000
0.000000 0.972326 0.776962
0.000000 0.972342 0.776409
0.000000 0.972358 0.775853
0.000000 0.972374 0.775294
0.000000 0.972390 0.774730
0.000000 0.972406 0.774163
0.000000 0.972426 0.773447
0.000000 0.972454 0.772433
0.000000 0.972491 0.771071
0.000000 0.972540 0.769232
0.000000 0.972605 0.766733
0.000000 0.972691 0.763308
0.000000 0.972805 0.758558
0.000000 0.972957 0.751863
0.000000 0.973157 0.742203
0.000000 0.973423 0.727788
0.000000 0.973776 0.705156
0.000000 0.974244 0.666589
0.000000 0.974866 0.590294
0.000000 0.975697 0.370459
0.502862 0.975903 0.000000
0.727813 0.975544 0.000000
0.835218 0.975060 0.000000
0.898143 0.974406 0.000000
0.938473 0.973513 0.000000
0.965682 0.972285 0.000000
0.984649 0.970574 0.000000
0.998162 0.968147 0.000000
1.000000 0.964620 0.000000
1.000000 0.959310 0.000000
1.000000 0.950875 0.000000
1.000000 0.936264 0.000000
1.000000 0.906699 0.000000
0.000000 0.986882 0.823019
0.000000 0.986891 0.822649
0.000000 0.986901 0.822277
0.000000 0.986910 0.821902
0.000000 0.986920 0.821526
0.000000 0.986929 0.821147
0.000000 0.986941 0.820671
0.000000 0.986958 0.819998
0.000000 0.986980 0.819095
0.000000 0.987009 0.817882
0.000000 0.987047 0.816242
0.000000 0.987099 0.814012
0.000000 0.987166 0.810950
0.000000 0.987256 0.806694
0.000000 0.987375 0.800676
0.000000 0.987533 0.791955
0.000000 0.987742 0.778856
0.000000 0.988020 0.758087
0.000000 0.988388 0.722131
0.000000 0.988877 0.648988
