luts/slog3-to-rec709.cube
# S-Log3 / S-Gamut3.Cine to Rec.709
# Generated by immich-slog-grader tools/make-lut.mjs
# white=12 gray=0.18 contrast=1 saturation=1
# Input domain is S-Log3 code values 0..1 over the full 0..1023 numbering.
LUT_3D_SIZE 5
DOMAIN_MIN 0.0 0.0 0.0
DOMAIN_MAX 1.0 1.0 1.0
0.000000 0.000000 0.000000
0.000000 0.000000 0.000000
0.548376 0.000000 0.129794
0.936397 0.000000 0.505253
1.000000 0.000000 0.903956
0.000000 0.174437 0.036646
0.172036 0.185179 0.000000
0.624832 0.081456 0.000000
0.940823 0.000000 0.486603
1.000000 0.000000 0.903037
0.000000 0.618432 0.284137
0.000000 0.626071 0.191317
0.597121 0.619708 0.000000
0.960742 0.338705 0.000000
1.000000 0.000000 0.894583
0.000000 0.953947 0.725862
0.000000 0.954221 0.717250
0.000000 0.956361 0.608390
0.945651 0.953909 0.000000
1.000000 0.775959 0.000000
0.000000 1.000000 0.984639
0.000000 1.000000 0.984419
0.000000 1.000000 0.982608
0.000000 1.000000 0.949153
1.000000 1.000000 0.000000
0.000000 0.000000 0.000000
0.000000 0.000000 0.000000
0.528771 0.000000 0.212685
0.935625 0.000000 0.528996
1.000000 0.000000 0.905344
0.000000 0.145526 0.137354
0.158012 0.158012 0.158012
0.631154 0.000000 0.173499
0.940097 0.000000 0.514270
1.000000 0.000000 0.904457
0.000000 0.614030 0.342761
0.000000 0.621572 0.286548
0.594891 0.617492 0.000000
0.962761 0.240828 0.000000
1.000000 0.000000 0.896295
0.000000 0.953788 0.734150
0.000000 0.954061 0.726159
0.000000 0.956202 0.627068
0.945564 0.953829 0.000000
1.000000 0.767290 0.000000
0.000000 1.000000 0.984864
0.000000 1.000000 0.984647
0.000000 1.000000 0.982855
0.000000 1.000000 0.949902
1.000000 1.000000 0.000000
0.000000 0.000000 0.000000
0.000000 0.000000 0.000000
0.348512 0.000000 0.315147
0.929366 0.000000 0.647661
1.000000 0.000000 0.915164
0.000000 0.000000 0.000000
0.000000 0.000000 0.000000
0.502856 0.000000 0.463539
0.934235 0.000000 0.647340
1.000000 0.000000 0.914483
0.000000 0.577522 0.561419
0.000000 0.584185 0.568085
0.578674 0.578674 0.578674
0.961633 0.000000 0.574216
1.000000 0.000000 0.908240
0.000000 0.952524 0.785439
0.000000 0.952798 0.780767
0.000000 0.954940 0.728449
0.944879 0.953199 0.000000
1.000000 0.666290 0.000000
0.000000 1.000000 0.986556
0.000000 1.000000 0.986355
0.000000 1.000000 0.984708
0.000000 1.000000 0.955319
1.000000 1.000000 0.000000
0.000000 0.000000 0.000000
0.000000 0.000000 0.000000
0.000000 0.000000 0.000000
0.836470 0.000000 0.806692
1.000000 0.000000 0.962800
0.000000 0.000000 0.000000
0.000000 0.000000 0.000000
0.000000 0.000000 0.000000
0.849611 0.000000 0.821105
1.000000 0.000000 0.962804
0.000000 0.000000 0.000000
0.000000 0.000000 0.000000
0.222143 0.000000 0.641827
0.912682 0.000000 0.891522
1.000000 0.000000 0.962654
0.000000 0.938885 0.932206
0.000000 0.939163 0.932500
0.000000 0.941279 0.934740
0.938647 0.938647 0.938647
1.000000 0.000000 0.935640
0.000000 1.000000 0.998275
0.000000 1.000000 0.998174
0.000000 1.000000 0.997358
0.000000 1.000000 0.985281
1.000000 1.000000 0.000000
0.000000 0.000000 0.000000
0.000000 0.000000 0.000000
0.000000 0.000000 0.000000
0.000000 0.000000 0.000000
1.000000 0.000000 1.000000
0.000000 0.000000 0.000000
0.000000 0.000000 0.000000
0.000000 0.000000 0.000000
0.000000 0.000000 0.000000
1.000000 0.000000 1.000000
0.000000 0.000000 0.000000
0.000000 0.000000 0.000000
0.000000 0.000000 0.000000
0.000000 0.000000 0.000000
1.000000 0.000000 1.000000
0.000000 0.000000 0.000000
0.000000 0.000000 0.000000
0.000000 0.000000 0.000000
0.669451 0.000000 0.970098
1.000000 0.000000 1.000000
0.000000 1.000000 1.000000
0.000000 1.000000 1.000000
0.000000 1.000000 1.000000
0.000000 1.000000 1.000000
1.000000 1.000000 1.000000
