luts/slog3-to-rec709.cube
# S-Log3 / S-Gamut3.Cine to Rec.709
# Generated by immich-slog-grader tools/make-lut.mjs
# white=12 gray=0.18 contrast=1 saturation=1
# Input domain is S-Log3 code values 0..1 over the full 0..1023 numbering.
LUT_3D_SIZE 9
DOMAIN_MIN 0.0 0.0 0.0
DOMAIN_MAX 1.0 1.0 1.0
0.000000 0.000000 0.000000
0.000000 0.000000 0.000000
0.000000 0.000000 0.000000
0.260190 0.000000 0.029280
0.548376 0.000000 0.129794
0.789924 0.000000 0.289780
0.936397 0.000000 0.505253
1.000000 0.000000 0.735807
1.000000 0.000000 0.903956
0.000000 0.019215 0.003377
0.034773 0.038766 0.000000
0.141541 0.049610 0.000000
0.354174 0.034543 0.000000
0.591340 0.000000 0.084314
0.800564 0.000000 0.272512
0.938154 0.000000 0.498655
1.000000 0.000000 0.733927
1.000000 0.000000 0.903604
0.000000 0.174437 0.036646
0.044298 0.185594 0.000000
0.172036 0.185179 0.000000
0.370945 0.173604 0.000000
0.624832 0.081456 0.000000
0.815801 0.000000 0.231088
0.940823 0.000000 0.486603
1.000000 0.000000 0.730792
1.000000 0.000000 0.903037
0.000000 0.378859 0.130883
0.000000 0.387436 0.059306
0.119309 0.390903 0.000000
0.363153 0.383114 0.000000
0.623347 0.351766 0.000000
0.841396 0.180388 0.000000
0.948354 0.000000 0.432191
1.000000 0.000000 0.719651
1.000000 0.000000 0.901185
0.000000 0.618432 0.284137
0.000000 0.621363 0.255765
0.000000 0.626071 0.191317
0.250319 0.630602 0.000000
0.597121 0.619708 0.000000
0.836030 0.579069 0.000000
0.960742 0.338705 0.000000
1.000000 0.000000 0.666992
1.000000 0.000000 0.894583
0.000000 0.829418 0.495227
0.000000 0.830098 0.484120
0.000000 0.831176 0.464378
0.000000 0.834560 0.377169
0.443204 0.837935 0.000000
0.812783 0.829582 0.000000
0.957582 0.797606 0.000000
1.000000 0.555073 0.000000
1.000000 0.000000 0.861387
0.000000 0.953947 0.725862
0.000000 0.954053 0.722618
0.000000 0.954221 0.717250
0.000000 0.954744 0.698408
0.000000 0.956361 0.608390
0.673162 0.957992 0.000000
0.945651 0.953909 0.000000
1.000000 0.937748 0.000000
1.000000 0.775959 0.000000
0.000000 1.000000 0.897952
0.000000 1.000000 0.897332
0.000000 1.000000 0.896334
0.000000 1.000000 0.893084
0.000000 1.000000 0.881534
0.000000 1.000000 0.820182
0.864392 1.000000 0.000000
1.000000 1.000000 0.000000
1.000000 1.000000 0.000000
0.000000 1.000000 0.984639
0.000000 1.000000 0.984554
0.000000 1.000000 0.984419
0.000000 1.000000 0.983991
0.000000 1.000000 0.982608
0.000000 1.000000 0.977620
0.000000 1.000000 0.949153
0.969861 1.000000 0.000000
1.000000 1.000000 0.000000
0.000000 0.000000 0.000000
0.000000 0.000000 0.000000
0.000000 0.000000 0.000000
0.237255 0.000000 0.061005
0.540842 0.000000 0.168509
0.788090 0.000000 0.311843
0.936099 0.000000 0.514807
1.000000 0.000000 0.738653
1.000000 0.000000 0.904497
0.000000 0.005291 0.004898
0.025282 0.025282 0.025282
0.206593 0.000000 0.020019
0.366906 0.000000 0.055516
0.584541 0.000000 0.147965
0.798831 0.000000 0.298447
0.937863 0.000000 0.508787
1.000000 0.000000 0.736838
1.000000 0.000000 0.904150
0.000000 0.163432 0.085633
0.000000 0.183111 0.039369
0.166313 0.179207 0.000000
0.404429 0.136700 0.000000
0.640777 0.000000 0.029096
0.814206 0.000000 0.266261
0.940543 0.000000 0.497784
1.000000 0.000000 0.733812
1.000000 0.000000 0.903590
0.000000 0.374023 0.174776
0.000000 0.382422 0.132845
0.033707 0.393825 0.000000
0.360734 0.380631 0.000000
0.634248 0.336517 0.000000
0.846552 0.105704 0.000000
0.948104 0.000000 0.448304
1.000000 0.000000 0.723062
1.000000 0.000000 0.901763
0.000000 0.616735 0.308763
0.000000 0.619653 0.285074
0.000000 0.624337 0.233481
0.210907 0.631572 0.000000
0.596260 0.618853 0.000000
0.838481 0.573520 0.000000
0.961515 0.306350 0.000000
1.000000 0.000000 0.672403
1.000000 0.000000 0.895251
0.000000 0.829022 0.505975
0.000000 0.829701 0.495612
0.000000 0.830779 0.477262
0.000000 0.834161 0.397434
0.426660 0.838155 0.000000
0.812574 0.829383 0.000000
0.957956 0.796207 0.000000
1.000000 0.542777 0.000000
1.000000 0.000000 0.862563
0.000000 0.953886 0.729129
0.000000 0.953992 0.725977
0.000000 0.954159 0.720764
0.000000 0.954683 0.702496
0.000000 0.956299 0.615843
0.667801 0.958026 0.000000
0.945617 0.953878 0.000000
1.000000 0.937515 0.000000
1.000000 0.772680 0.000000
0.000000 1.000000 0.898587
0.000000 1.000000 0.897974
0.000000 1.000000 0.896987
0.000000 1.000000 0.893775
0.000000 1.000000 0.882368
0.000000 1.000000 0.821996
0.863251 1.000000 0.000000
1.000000 1.000000 0.000000
1.000000 1.000000 0.000000
0.000000 1.000000 0.984726
0.000000 1.000000 0.984642
0.000000 1.000000 0.984507
0.000000 1.000000 0.984081
0.000000 1.000000 0.982704
0.000000 1.000000 0.977738
0.000000 1.000000 0.949445
0.969693 1.000000 0.000000
1.000000 1.000000 0.000000
0.000000 0.000000 0.000000
0.000000 0.000000 0.000000
0.000000 0.000000 0.000000
0.199217 0.000000 0.087833
0.528771 0.000000 0.212685
0.785160 0.000000 0.342098
0.935625 0.000000 0.528996
1.000000 0.000000 0.743031
1.000000 0.000000 0.905344
0.000000 0.000000 0.000000
0.010620 0.000000 0.101328
0.143567 0.000000 0.123721
0.337944 0.000000 0.151289
0.573697 0.000000 0.212196
0.796066 0.000000 0.333380
0.937401 0.000000 0.523796
1.000000 0.000000 0.741314
1.000000 0.000000 0.905005
0.000000 0.145526 0.137354
0.000000 0.162705 0.154004
0.158012 0.158012 0.158012
0.415672 0.093613 0.144074
0.631154 0.000000 0.173499
0.811662 0.000000 0.311548
0.940097 0.000000 0.514270
1.000000 0.000000 0.738454
1.000000 0.000000 0.904457
0.000000 0.366279 0.226858
0.000000 0.374393 0.207062
0.000000 0.387957 0.135906
0.357017 0.375084 0.064147
0.655587 0.302700 0.000000
0.850466 0.000000 0.087540
0.947706 0.000000 0.471542
1.000000 0.000000 0.728292
1.000000 0.000000 0.902667
0.000000 0.614030 0.342761
0.000000 0.616929 0.324585
0.000000 0.621572 0.286548
0.112255 0.633514 0.000000
0.594891 0.617492 0.000000
0.842588 0.563756 0.000000
0.962761 0.240828 0.000000
1.000000 0.000000 0.680610
1.000000 0.000000 0.896295
0.000000 0.828393 0.521943
0.000000 0.829072 0.512630
0.000000 0.830148 0.496222
0.000000 0.833526 0.426286
0.396662 0.838529 0.000000
0.812242 0.829068 0.000000
0.958559 0.793907 0.000000
1.000000 0.521483 0.000000
1.000000 0.000000 0.864389
0.000000 0.953788 0.734150
0.000000 0.953894 0.731137
0.000000 0.954061 0.726159
0.000000 0.954585 0.708751
0.000000 0.956202 0.627068
0.658848 0.958081 0.000000
0.945564 0.953829 0.000000
1.000000 0.937142 0.000000
1.000000 0.767290 0.000000
0.000000 1.000000 0.899579
0.000000 1.000000 0.898977
0.000000 1.000000 0.898009
0.000000 1.000000 0.894856
0.000000 1.000000 0.883670
0.000000 1.000000 0.824803
0.861404 1.000000 0.000000
1.000000 1.000000 0.000000
1.000000 1.000000 0.000000
0.000000 1.000000 0.984864
0.000000 1.000000 0.984780
0.000000 1.000000 0.984647
0.000000 1.000000 0.984223
0.000000 1.000000 0.982855
0.000000 1.000000 0.977925
0.000000 1.000000 0.949902
0.969427 1.000000 0.000000
1.000000 1.000000 0.000000
0.000000 0.000000 0.000000
0.000000 0.000000 0.000000
0.000000 0.000000 0.000000
0.043664 0.000000 0.035999
0.489784 0.000000 0.288517
0.775819 0.000000 0.412219
0.934130 0.000000 0.567169
1.000000 0.000000 0.755764
1.000000 0.000000 0.907911
0.000000 0.000000 0.000000
0.000000 0.000000 0.000000
0.000000 0.000000 0.000000
0.248148 0.000000 0.220787
0.539113 0.000000 0.315673
0.787262 0.000000 0.412286
0.935944 0.000000 0.563954
1.000000 0.000000 0.754322
1.000000 0.000000 0.907593
0.000000 0.084772 0.189494
0.000000 0.095092 0.269503
0.129699 0.064596 0.375190
0.394762 0.000000 0.359141
0.600915 0.000000 0.341299
0.803579 0.000000 0.408092
0.938696 0.000000 0.557949
1.000000 0.000000 0.751919
1.000000 0.000000 0.907079
0.000000 0.341404 0.328020
0.000000 0.348599 0.335064
0.000000 0.359566 0.345810
0.346103 0.346103 0.346103
0.653141 0.262066 0.327802
0.843947 0.000000 0.348311
0.946453 0.000000 0.530551
1.000000 0.000000 0.743380
1.000000 0.000000 0.905404
0.000000 0.605448 0.423302
0.000000 0.608280 0.415100
0.000000 0.612793 0.398659
0.000000 0.627433 0.291088
0.590836 0.610581 0.223958
0.854593 0.528192 0.100111
0.964618 0.000000 0.209352
1.000000 0.000000 0.703704
1.000000 0.000000 0.899443
0.000000 0.826412 0.564977
0.000000 0.827090 0.558184
0.000000 0.828164 0.546354
0.000000 0.831530 0.498112
0.248309 0.839938 0.000000
0.811202 0.828078 0.000000
0.960517 0.785982 0.000000
1.000000 0.434903 0.000000
1.000000 0.000000 0.869831
0.000000 0.953481 0.748726
0.000000 0.953587 0.746099
0.000000 0.953755 0.741769
0.000000 0.954278 0.726723
0.000000 0.955895 0.658191
0.626556 0.958261 0.000000
0.945397 0.953676 0.000000
1.000000 0.935937 0.000000
1.000000 0.748711 0.000000
0.000000 1.000000 0.902581
0.000000 1.000000 0.902012
0.000000 1.000000 0.901096
0.000000 1.000000 0.898118
0.000000 1.000000 0.887588
0.000000 1.000000 0.833089
0.855316 1.000000 0.000000
1.000000 1.000000 0.000000
1.000000 1.000000 0.000000
0.000000 1.000000 0.985290
0.000000 1.000000 0.985207
0.000000 1.000000 0.985076
0.000000 1.000000 0.984662
0.000000 1.000000 0.983322
0.000000 1.000000 0.978500
0.000000 1.000000 0.951296
0.968578 1.000000 0.000000
1.000000 1.000000 0.000000
0.000000 0.000000 0.000000
0.000000 0.000000 0.000000
0.000000 0.000000 0.000000
0.000000 0.000000 0.000000
0.348512 0.000000 0.315147
0.744842 0.000000 0.522683
0.929366 0.000000 0.647661
0.999793 0.000000 0.787974
1.000000 0.000000 0.915164
0.000000 0.000000 0.000000
0.000000 0.000000 0.000000
0.000000 0.000000 0.000000
0.000000 0.000000 0.000000
0.420516 0.000000 0.383801
0.758208 0.000000 0.533202
0.931302 0.000000 0.647711
1.000000 0.000000 0.787145
1.000000 0.000000 0.914903
0.000000 0.000000 0.000000
0.000000 0.000000 0.000000
0.000000 0.000000 0.000000
0.180413 0.000000 0.315288
0.502856 0.000000 0.463539
0.777098 0.000000 0.547407
0.934235 0.000000 0.647340
1.000000 0.000000 0.785754
1.000000 0.000000 0.914483
0.000000 0.257141 0.444483
0.000000 0.261387 0.474680
0.000000 0.262873 0.532428
0.308942 0.224583 0.610696
0.644420 0.040818 0.605150
0.822962 0.000000 0.574987
0.942479 0.000000 0.642404
1.000000 0.000000 0.780760
1.000000 0.000000 0.913111
0.000000 0.577522 0.561419
0.000000 0.580127 0.564025
0.000000 0.584185 0.568085
0.000000 0.596344 0.580262
0.578674 0.578674 0.578674
0.852748 0.479473 0.557891
0.961633 0.000000 0.574216
1.000000 0.000000 0.757561
1.000000 0.000000 0.908240
0.000000 0.820133 0.656629
0.000000 0.820806 0.653925
0.000000 0.821871 0.649291
0.000000 0.825194 0.631417
0.000000 0.835673 0.503842
0.808166 0.822853 0.431647
0.965647 0.757954 0.270423
1.000000 0.000000 0.391137
1.000000 0.000000 0.884510
0.000000 0.952524 0.785439
0.000000 0.952630 0.783670
0.000000 0.952798 0.780767
0.000000 0.953323 0.770833
0.000000 0.954940 0.728449
0.445069 0.958932 0.000000
0.944879 0.953199 0.000000
1.000000 0.931790 0.000000
1.000000 0.666290 0.000000
0.000000 1.000000 0.911027
0.000000 1.000000 0.910545
0.000000 1.000000 0.909770
0.000000 1.000000 0.907256
0.000000 1.000000 0.898452
0.000000 1.000000 0.854884
0.832707 1.000000 0.000000
1.000000 1.000000 0.000000
1.000000 1.000000 0.000000
0.000000 1.000000 0.986556
0.000000 1.000000 0.986479
0.000000 1.000000 0.986355
0.000000 1.000000 0.985966
0.000000 1.000000 0.984708
0.000000 1.000000 0.980201
0.000000 1.000000 0.955319
0.965789 1.000000 0.000000
1.000000 1.000000 0.000000
0.000000 0.000000 0.000000
0.000000 0.000000 0.000000
0.000000 0.000000 0.000000
0.000000 0.000000 0.000000
0.000000 0.000000 0.000000
0.618805 0.000000 0.578603
0.912988 0.000000 0.756118
0.997935 0.000000 0.848575
1.000000 0.000000 0.932707
0.000000 0.000000 0.000000
0.000000 0.000000 0.000000
0.000000 0.000000 0.000000
0.000000 0.000000 0.000000
0.000000 0.000000 0.000000
0.642477 0.000000 0.602567
0.915381 0.000000 0.759019
0.998182 0.000000 0.848587
1.000000 0.000000 0.932567
0.000000 0.000000 0.000000
0.000000 0.000000 0.000000
0.000000 0.000000 0.000000
0.000000 0.000000 0.000000
0.000000 0.000000 0.000000
0.674605 0.000000 0.635383
0.918992 0.000000 0.763353
0.998569 0.000000 0.848576
1.000000 0.000000 0.932339
0.000000 0.000000 0.000000
0.000000 0.000000 0.000000
0.000000 0.000000 0.000000
0.059502 0.000000 0.321384
0.411410 0.000000 0.601586
0.746991 0.000000 0.710668
0.929035 0.000000 0.775010
0.999727 0.000000 0.848283
1.000000 0.000000 0.931595
0.000000 0.475559 0.698210
0.000000 0.477246 0.707205
0.000000 0.479387 0.721895
0.000000 0.480038 0.772426
0.535977 0.432444 0.822937
0.846813 0.188720 0.818866
0.951775 0.000000 0.796421
1.000000 0.000000 0.844754
1.000000 0.000000 0.928938
0.000000 0.798986 0.786124
0.000000 0.799638 0.786797
0.000000 0.800663 0.787854
0.000000 0.803802 0.791093
0.000000 0.812964 0.800557
0.798852 0.798852 0.798852
0.964799 0.714935 0.782458
1.000000 0.000000 0.793589
1.000000 0.000000 0.916254
0.000000 0.949465 0.854146
0.000000 0.949572 0.853556
0.000000 0.949741 0.852594
0.000000 0.950267 0.849372
0.000000 0.951883 0.836813
0.000000 0.956914 0.733649
0.943363 0.950630 0.669201
1.000000 0.916905 0.489747
1.000000 0.000000 0.619738
0.000000 1.000000 0.931241
0.000000 1.000000 0.930939
0.000000 1.000000 0.930454
0.000000 1.000000 0.928892
0.000000 1.000000 0.923538
0.000000 1.000000 0.899474
0.676627 1.000000 0.000000
1.000000 1.000000 0.000000
1.000000 0.998527 0.000000
0.000000 1.000000 0.990079
0.000000 1.000000 0.990015
0.000000 1.000000 0.989912
0.000000 1.000000 0.989588
0.000000 1.000000 0.988544
0.000000 1.000000 0.984849
0.000000 1.000000 0.965592
0.955133 1.000000 0.000000
1.000000 1.000000 0.000000
0.000000 0.000000 0.000000
0.000000 0.000000 0.000000
0.000000 0.000000 0.000000
0.000000 0.000000 0.000000
0.000000 0.000000 0.000000
0.000000 0.000000 0.000000
0.836470 0.000000 0.806692
0.991421 0.000000 0.916389
1.000000 0.000000 0.962800
0.000000 0.000000 0.000000
0.000000 0.000000 0.000000
0.000000 0.000000 0.000000
0.000000 0.000000 0.000000
0.000000 0.000000 0.000000
0.000000 0.000000 0.000000
0.841775 0.000000 0.812499
0.991737 0.000000 0.916910
1.000000 0.000000 0.962802
0.000000 0.000000 0.000000
0.000000 0.000000 0.000000
0.000000 0.000000 0.000000
0.000000 0.000000 0.000000
0.000000 0.000000 0.000000
0.000000 0.000000 0.000000
0.849611 0.000000 0.821105
0.992229 0.000000 0.917718
1.000000 0.000000 0.962804
0.000000 0.000000 0.000000
0.000000 0.000000 0.000000
0.000000 0.000000 0.000000
0.000000 0.000000 0.000000
0.000000 0.000000 0.000000
0.000000 0.000000 0.000000
0.870410 0.000000 0.844094
0.993696 0.000000 0.920108
1.000000 0.000000 0.962796
0.000000 0.000000 0.000000
0.000000 0.000000 0.000000
0.000000 0.000000 0.000000
0.000000 0.000000 0.000000
0.222143 0.000000 0.641827
0.659562 0.000000 0.827772
0.912682 0.000000 0.891522
0.997680 0.000000 0.926364
1.000000 0.000000 0.962654
0.000000 0.711939 0.885054
0.000000 0.712442 0.886821
0.000000 0.713191 0.889625
0.000000 0.715102 0.898434
0.000000 0.715326 0.926589
0.764501 0.669991 0.950671
0.962051 0.386252 0.948678
1.000000 0.000000 0.937474
1.000000 0.000000 0.960987
0.000000 0.938885 0.932206
0.000000 0.938993 0.932320
0.000000 0.939163 0.932500
0.000000 0.939690 0.933058
0.000000 0.941279 0.934740
0.000000 0.945864 0.939595
0.938647 0.938647 0.938647
1.000000 0.892113 0.930137
1.000000 0.000000 0.935640
0.000000 1.000000 0.965299
0.000000 1.000000 0.965211
0.000000 1.000000 0.965070
0.000000 1.000000 0.964620
0.000000 1.000000 0.963124
0.000000 1.000000 0.957198
0.000000 1.000000 0.902530
1.000000 1.000000 0.863425
1.000000 0.992582 0.724303
0.000000 1.000000 0.998275
0.000000 1.000000 0.998236
0.000000 1.000000 0.998174
0.000000 1.000000 0.997980
0.000000 1.000000 0.997358
0.000000 1.000000 0.995211
0.000000 1.000000 0.985281
0.867017 1.000000 0.000000
1.000000 1.000000 0.000000
0.000000 0.000000 0.000000
0.000000 0.000000 0.000000
0.000000 0.000000 0.000000
0.000000 0.000000 0.000000
0.000000 0.000000 0.000000
0.000000 0.000000 0.000000
0.000000 0.000000 0.000000
0.958305 0.000000 0.943851
1.000000 0.000000 0.992438
0.000000 0.000000 0.000000
0.000000 0.000000 0.000000
0.000000 0.000000 0.000000
0.000000 0.000000 0.000000
0.000000 0.000000 0.000000
0.000000 0.000000 0.000000
0.000000 0.000000 0.000000
0.959112 0.000000 0.944789
1.000000 0.000000 0.992507
0.000000 0.000000 0.000000
0.000000 0.000000 0.000000
0.000000 0.000000 0.000000
0.000000 0.000000 0.000000
0.000000 0.000000 0.000000
0.000000 0.000000 0.000000
0.000000 0.000000 0.000000
0.960357 0.000000 0.946235
1.000000 0.000000 0.992615
0.000000 0.000000 0.000000
0.000000 0.000000 0.000000
0.000000 0.000000 0.000000
0.000000 0.000000 0.000000
0.000000 0.000000 0.000000
0.000000 0.000000 0.000000
0.000000 0.000000 0.000000
0.963992 0.000000 0.950463
1.000000 0.000000 0.992946
0.000000 0.000000 0.000000
0.000000 0.000000 0.000000
0.000000 0.000000 0.000000
0.000000 0.000000 0.000000
0.000000 0.000000 0.000000
0.000000 0.000000 0.000000
0.000000 0.000000 0.000000
0.973279 0.000000 0.961304
1.000000 0.000000 0.993912
0.000000 0.000000 0.000000
0.000000 0.000000 0.000000
0.000000 0.000000 0.000000
0.000000 0.000000 0.000000
0.000000 0.000000 0.000000
0.431273 0.000000 0.860022
0.859288 0.000000 0.954696
0.991105 0.000000 0.982269
1.000000 0.000000 0.996419
0.000000 0.890427 0.979650
0.000000 0.890525 0.979897
0.000000 0.890678 0.980286
0.000000 0.891129 0.981498
0.000000 0.892261 0.985223
0.000000 0.892323 0.996713
0.920502 0.863942 1.000000
1.000000 0.622542 1.000000
1.000000 0.000000 1.000000
0.000000 1.000000 0.998735
0.000000 1.000000 0.998749
0.000000 1.000000 0.998772
0.000000 1.000000 0.998844
0.000000 1.000000 0.999064
0.000000 1.000000 0.999726
0.000000 1.000000 1.000000
1.000000 1.000000 1.000000
1.000000 0.982251 0.997898
0.000000 1.000000 1.000000
0.000000 1.000000 1.000000
0.000000 1.000000 1.000000
0.000000 1.000000 1.000000
0.000000 1.000000 1.000000
0.000000 1.000000 1.000000
0.000000 1.000000 1.000000
0.000000 1.000000 0.986568
1.000000 1.000000 0.969664
0.000000 0.000000 0.000000
0.000000 0.000000 0.000000
0.000000 0.000000 0.000000
0.000000 0.000000 0.000000
0.000000 0.000000 0.000000
0.000000 0.000000 0.000000
0.000000 0.000000 0.000000
0.000000 0.000000 0.000000
1.000000 0.000000 1.000000
0.000000 0.000000 0.000000
0.000000 0.000000 0.000000
0.000000 0.000000 0.000000
0.000000 0.000000 0.000000
0.000000 0.000000 0.000000
0.000000 0.000000 0.000000
0.000000 0.000000 0.000000
0.000000 0.000000 0.000000
1.000000 0.000000 1.000000
0.000000 0.000000 0.000000
0.000000 0.000000 0.000000
0.000000 0.000000 0.000000
0.000000 0.000000 0.000000
0.000000 0.000000 0.000000
0.000000 0.000000 0.000000
0.000000 0.000000 0.000000
0.000000 0.000000 0.000000
1.000000 0.000000 1.000000
0.000000 0.000000 0.000000
0.000000 0.000000 0.000000
0.000000 0.000000 0.000000
0.000000 0.000000 0.000000
0.000000 0.000000 0.000000
0.000000 0.000000 0.000000
0.000000 0.000000 0.000000
0.000000 0.000000 0.000000
1.000000 0.000000 1.000000
0.000000 0.000000 0.000000
0.000000 0.000000 0.000000
0.000000 0.000000 0.000000
0.000000 0.000000 0.000000
0.000000 0.000000 0.000000
0.000000 0.000000 0.000000
0.000000 0.000000 0.000000
0.000000 0.000000 0.000000
1.000000 0.000000 1.000000
0.000000 0.000000 0.000000
0.000000 0.000000 0.000000
0.000000 0.000000 0.000000
0.000000 0.000000 0.000000
0.000000 0.000000 0.000000
0.000000 0.000000 0.000000
0.000000 0.000000 0.000000
0.000000 0.000000 0.000000
1.000000 0.000000 1.000000
0.000000 0.000000 0.000000
0.000000 0.000000 0.000000
0.000000 0.000000 0.000000
0.000000 0.000000 0.000000
0.000000 0.000000 0.000000
0.000794 0.000000 0.120717
0.669451 0.000000 0.970098
0.968114 0.000000 1.000000
1.000000 0.000000 1.000000
0.000000 0.981547 1.000000
0.000000 0.981561 1.000000
0.000000 0.981582 1.000000
0.000000 0.981648 1.000000
0.000000 0.981840 1.000000
0.000000 0.982321 1.000000
0.000000 0.982337 1.000000
0.994041 0.969898 1.000000
1.000000 0.831495 1.000000
0.000000 1.000000 1.000000
0.000000 1.000000 1.000000
0.000000 1.000000 1.000000
0.000000 1.000000 1.000000
0.000000 1.000000 1.000000
0.000000 1.000000 1.000000
0.000000 1.000000 1.000000
0.000000 1.000000 1.000000
1.000000 1.000000 1.000000
